!!!!SEGMENT: pl-stab--27c--001-005_nowakiewicz-kazimierz--missa-in-b-et-resurrexit.krn
!!!cenid: 18xx:3454
!!!COM: Nowakiewicz, Kazimierz
!!!COM-rismID: pe30020309
!!!CDT: <1800->1824
!!!CNT: Polish
!!!OPR: Missa in B
!!!OTL: Et resurrexit
!!!OMV: 005
!!!PDT:
!!!AGN:
!!!YEC: Copyright 2022 Narodowy Instytut Fryderyka Chopina (https://polishscores.org)
!!!YEM: License CC-BY-4.0 (https://creativecommons.org/licenses/by/4.0)
!!!SMS-siglum: PL-STAb
!!!SMS-shelfmark: 27c
!!!SMS-shelfwork: 001-005 M
!!!SMS-variant:
!!!SMS-altvar:
!!!NIFC-rismSourceID: 301050705
!!!NIFC-rismChildID: 301050705
!!!NIFC-islandoraID: pl-stab:3750
!!!URL-pdf-islandora: https://repozytorium.nifc.pl/islandora/object/pl-stab%3A3750/datastream/PDF/view
!!!URL-scan: https://polish.musicsources.pl/pl/lokalizacje/galeria/rekopisy/4473 @EN{Scan on Polish Music Sources Website} @PL{Skany w portalu Dziedzictwo Muzyki Polskiej w otwartym dostępie}
!!!IIIF:
!!!ONB-nifc: UWAGA: części Mszy: 1. Kyrie, 2. Gloria, 3. Credo, 4. Et incarnatus, 5. Et resurrexit, 6. Sanctus, 7. Pleni sunt, 8. Benedictus, 9. Agnus Dei, 10. Dona nobis
!!!AIN: 1 alto 1 bass 2 clars 2 cor 1 organ 1 soprn 1 tenor 2 violn
!!!key: B-
!!!OMD:
!!!OMD-mod: Allegro
**kern	**fba	**kern	**dynam	**kern	**dynam	**kern	**dynam	**text	**mod-text	**kern	**dynam	**text	**mod-text	**kern	**dynam	**text	**mod-text	**kern	**dynam	**text	**mod-text	**kern	**kern	**kern	**dynam	**kern	**dynam
*group5	*	*group4	*	*group4	*	*group3	*	*	*	*group3	*	*	*	*group3	*	*	*	*group3	*	*	*	*group2	*group2	*group1	*	*group1	*
*part11	*	*part10	*	*part9	*	*part8	*	*	*	*part7	*	*	*	*part6	*	*	*	*part5	*	*	*	*part4	*part3	*part2	*	*part1	*
*staff11	*	*staff10	*	*staff9	*	*staff8	*	*	*	*staff7	*	*	*	*staff6	*	*	*	*staff5	*	*	*	*staff4	*staff3	*staff2	*	*staff1	*
*I"Organo	*	*I"Violino Secundo	*	*I"Violino Primo	*	*I"Baſso	*	*	*	*I"Tenore	*	*	*	*I"Alto	*	*	*	*I"Canto	*	*	*	*I"Cornu Secundo in B.	*I"Cornu Primo in B.	*I"Clarinetto 2do in B.	*	*I"Clarinetto Primo in B.	*
*	*	*mI"Violino II	*	*mI"Violino I	*	*mI"Basso	*	*	*	*	*	*	*	*	*	*	*	*mI"Soprano	*	*	*	*mI"Cor II in B	*mI"Cor I in B	*mI"Clarinetto II in B	*	*mI"Clarinetto I in B	*
*I'org	*	*I'vl 2	*	*I'vl 1	*	*I'B	*	*	*	*I'T	*	*	*	*I'A	*	*	*	*I'S	*	*	*	*I'cor 2 in B	*I'cor 1 in B	*I'cl 2 in B	*	*I'cl 1 in B	*
*Iorgan	*	*Ivioln	*	*Ivioln	*	*Ibass	*	*	*	*Itenor	*	*	*	*Ialto	*	*	*	*Isoprn	*	*	*	*Icor	*Icor	*Iclars	*	*Iclars	*
*ICklav	*	*ICstr	*	*ICstr	*	*ICvox	*	*	*	*ICvox	*	*	*	*ICvox	*	*	*	*ICvox	*	*	*	*ICbras	*ICbras	*ICww	*	*ICww	*
*IGcont	*	*IGacmp	*	*IGacmp	*	*IGcoro	*	*	*	*IGcoro	*	*	*	*IGcoro	*	*	*	*IGcoro	*	*	*	*IGacmp	*IGacmp	*IGacmp	*	*IGacmp	*
*clefF4	*	*clefG2	*	*clefG2	*	*clefF4	*	*	*	*clefC4	*	*	*	*clefC3	*	*	*	*clefC1	*	*	*	*clefG2	*clefG2	*clefG2	*	*clefG2	*
*	*	*	*	*	*	*	*	*	*	*mclefGv2	*	*	*	*mclefG2	*	*	*	*mclefG2	*	*	*	*	*	*	*	*	*
*	*	*	*	*	*	*	*	*	*	*	*	*	*	*	*	*	*	*	*	*	*	*ITrd1c2	*ITrd1c2	*ITrd1c2	*	*ITrd1c2	*
*k[b-e-]	*	*k[b-e-]	*	*k[b-e-]	*	*k[b-e-]	*	*	*	*k[b-e-]	*	*	*	*k[b-e-]	*	*	*	*k[b-e-]	*	*	*	*k[b-e-]	*k[b-e-]	*k[b-e-]	*	*k[b-e-]	*
*B-:	*	*B-:	*	*B-:	*	*B-:	*	*	*	*B-:	*	*	*	*B-:	*	*	*	*B-:	*	*	*	*B-:	*B-:	*B-:	*	*B-:	*
*M4/4	*	*M4/4	*	*M4/4	*	*M4/4	*	*	*	*M4/4	*	*	*	*M4/4	*	*	*	*M4/4	*	*	*	*M4/4	*M4/4	*M4/4	*	*M4/4	*
*met(c)	*	*met(c)	*	*met(c)	*	*met(c)	*	*	*	*met(c)	*	*	*	*met(c)	*	*	*	*met(c)	*	*	*	*met(c)	*met(c)	*met(c)	*	*met(c)	*
=1	=1	=1	=1	=1	=1	=1	=1	=1	=1	=1	=1	=1	=1	=1	=1	=1	=1	=1	=1	=1	=1	=1	=1	=1	=1	=1	=1
!LO:TX:t=P:problem=brak partii organów od Gloria do prawie końca Credo. Ocalało tylko 7 ostatnich taktów partii.	!	!LO:TX:a:B:t=allo:mod=	!LO:DY:a:rj:t=for	!LO:TX:a:B:t=allegro:mod=	!	!LO:TX:a:B:t=allo:mod=	!LO:DY:a:t=for.	!	!	!	!	!	!	!	!	!	!	!LO:TX:a:B:t=allo:mod=	!	!	!	!LO:TX:a:B:t=allo:mod=	!LO:TX:a:B:t=allo:mod=	!LO:TX:a:B:t=allo:mod=	!	!LO:TX:a:B:t=allo:mod=	!LO:DY:a:t=for
!	!	!	!	!	!	!	!	!	!	!	!LO:DY:t= :mod=%s	!	!	!	!LO:DY:t= :mod=%s	!	!	!	!LO:DY:t= :mod=%s	!	!	!	!	!	!	!	!
!	!	!	!	!	!	!	!	!	!	!	!LO:MO:mod=!LO&colon;DY&colon;ed=brack	!	!	!	!LO:MO:mod=!LO&colon;DY&colon;ed=brack	!	!	!	!LO:MO:mod=!LO&colon;DY&colon;ed=	!	!	!	!	!	!	!	!
!	!	!	!	!	!	!	!	!	!	!	!null	!	!	!	!null	!	!	!	!null	!	!	!	!	!	!	!	!
!	!	!	!	!	!	!	!	!	!	!	!	!	!	!	!	!	!	!	!	!	!	!	!	!	!LO:DY:t= :mod=%s	!	!
!	!	!	!	!	!	!	!	!	!	!	!	!	!	!	!	!	!	!	!	!	!	!	!	!	!LO:MO:mod=!LO&colon;DY&colon;ed=brack	!	!
!	!	!	!	!	!	!	!	!	!	!	!	!	!	!	!	!	!	!	!	!	!	!	!	!	!null	!	!
!	!	!	!	!	!LO:DY:t= :mod=%s	!	!	!	!	!	!	!	!	!	!	!	!	!	!	!	!	!	!	!	!	!	!
!	!	!	!	!	!LO:MO:mod=!LO&colon;DY&colon;ed=brack	!	!	!	!	!	!	!	!	!	!	!	!	!	!	!	!	!	!	!	!	!	!
!	!	!	!	!	!null	!	!	!	!	!	!	!	!	!	!	!	!	!	!	!	!	!	!	!	!	!	!
1ryy	.	4b-/ 4d/	f	4b-/ 4d/	f	4B-\	f	Et	Et	4d\	f	Et	Et	4f\	f	Et	Et	4b-\	f	Et	Et	4d/	4b-\	4b-\	f	4bb-:\	f
*	*	*	*	*	*	*2\right	*	*	*	*2\right	*	*	*	*2\right	*	*	*	*2\right	*	*	*	*	*2\right	*2\right	*	*2\right	*
!	!	!	!	!	!	!	!	!	!	!	!	!	!	!	!	!	!	!	!LO:DY:a:t=for	!	!	!	!	!	!	!	!
!	!	!	!	!	!	!	!	!	!	!	!	!	!	!	!	!	!	!	!LO:MO:mod=.	!	!	!	!	!	!	!	!
.	.	2b-/ 2d/	.	2b-/ 2d/	.	2B-\	.	Re-	re-	2d\	.	re-	re-	2f\	.	re-	re-	2b-\	f	re-	re-	2d/	2cc\	2b-\	.	2b-\	.
.	.	4a/ 4f/	.	4cc/ 4f/	.	4F\	.	-sur-	-sur-	4A\	.	-sur-	-sur-	4f\	.	-sur-	-sur-	4cc\	.	-sur-	-sur-	4g/	4cc\	4a\	.	4cc\	.
=2	=2	=2	=2	=2	=2	=2	=2	=2	=2	=2	=2	=2	=2	=2	=2	=2	=2	=2	=2	=2	=2	=2	=2	=2	=2	=2	=2
1ryy	.	4b-/ 4d/	.	4dd\	.	4B-\	.	-re-	-re-	4B-\	.	-re-	-re-	2f\	.	-re-	-re-	4dd\	.	-re-	-re-	4b-\	4dd\	4b-\	.	4dd\	.
!	!	!	!	!	!LO:DY:a:rj:t=p.	!	!	!	!	!	!	!	!	!	!	!	!	!	!	!	!	!	!	!	!	!	!
!	!	!	!LO:DY:t= :mod=%s	!	!	!	!	!	!	!	!	!	!	!	!	!	!	!	!	!	!	!	!	!	!	!	!
!	!	!	!LO:MO:mod=!LO&colon;DY&colon;ed=brack	!	!	!	!	!	!	!	!	!	!	!	!	!	!	!	!	!	!	!	!	!	!	!	!
!	!	!	!null	!	!	!	!	!	!	!	!	!	!	!	!	!	!	!	!	!	!	!	!	!	!	!	!
.	.	8cc\L	p	8ee-\L	p	4F\	.	.	.	4c\	.	.	.	.	.	.	.	4ee-\	.	.	.	4cc\	4ee-\	4cc\	.	4ee-\	.
.	.	16b-\L	.	16dd\L	.	.	.	.	.	.	.	.	.	.	.	.	.	.	.	.	.	.	.	.	.	.	.
.	.	16cc\JJ	.	16ee-\JJ	.	.	.	.	.	.	.	.	.	.	.	.	.	.	.	.	.	.	.	.	.	.	.
.	.	4dd\	.	4ff\	.	4BB-/	.	-xit	-xit	4d\	.	-xit	-xit	4f\	.	-xit	-xit	4ff\	.	-xit	-xit	4dd\	4ff\	4dd\	.	4ff\	.
.	.	4r	.	4r	.	4r	.	.	.	4r	.	.	.	4r	.	.	.	4r	.	.	.	4r	4r	4r	.	4r	.
=3	=3	=3	=3	=3	=3	=3	=3	=3	=3	=3	=3	=3	=3	=3	=3	=3	=3	=3	=3	=3	=3	=3	=3	=3	=3	=3	=3
!	!	!	!LO:DY:a:t=p.	!	!	!	!	!	!	!	!	!	!	!	!	!	!	!	!	!	!	!	!	!	!	!	!
!	!	!	!LO:MO:mod=.	!	!	!	!	!	!	!	!	!	!	!	!	!	!	!	!	!	!	!	!	!	!	!	!
1ryy	.	2f/	p	8r	.	0r	.	.	.	0r	.	.	.	0r	.	.	.	0r	.	.	.	0r	0r	0r	.	0r	.
.	.	.	.	(>8ff\L	.	.	.	.	.	.	.	.	.	.	.	.	.	.	.	.	.	.	.	.	.	.	.
.	.	.	.	(>8ee-\)	.	.	.	.	.	.	.	.	.	.	.	.	.	.	.	.	.	.	.	.	.	.	.
.	.	.	.	8dd\J)	.	.	.	.	.	.	.	.	.	.	.	.	.	.	.	.	.	.	.	.	.	.	.
.	.	2g/	.	(>8dd\L	.	.	.	.	.	.	.	.	.	.	.	.	.	.	.	.	.	.	.	.	.	.	.
.	.	.	.	8cc\J)	.	.	.	.	.	.	.	.	.	.	.	.	.	.	.	.	.	.	.	.	.	.	.
.	.	.	.	8cc\L|	.	.	.	.	.	.	.	.	.	.	.	.	.	.	.	.	.	.	.	.	.	.	.
.	.	.	.	8cc\J|	.	.	.	.	.	.	.	.	.	.	.	.	.	.	.	.	.	.	.	.	.	.	.
=4	=4	=4	=4	=4	=4	=4-	=4	=4	=4	=4-	=4	=4	=4	=4-	=4	=4	=4	=4-	=4	=4	=4	=4-	=4-	=4-	=4	=4-	=4
1ryy	.	8r	.	8r	.	.	.	.	.	.	.	.	.	.	.	.	.	.	.	.	.	.	.	.	.	.	.
.	.	8a\L|	.	8cc\L|	.	.	.	.	.	.	.	.	.	.	.	.	.	.	.	.	.	.	.	.	.	.	.
.	.	(>8b-\	.	(>8dd\	.	.	.	.	.	.	.	.	.	.	.	.	.	.	.	.	.	.	.	.	.	.	.
!	!	!	!	!LO:LB:g=original	!	!	!	!	!	!	!	!	!	!	!	!	!	!	!	!	!	!	!	!	!	!	!
.	.	8cc\J)	.	8ee-\J)	.	.	.	.	.	.	.	.	.	.	.	.	.	.	.	.	.	.	.	.	.	.	.
!	!	!LO:SIC:o=8cc\L:v	!	!	!	!	!	!	!	!	!	!	!	!	!	!	!	!	!	!	!	!	!	!	!	!	!
.	.	(8cc\L	.	(>8ee-\L	.	.	.	.	.	.	.	.	.	.	.	.	.	.	.	.	.	.	.	.	.	.	.
!	!	!LO:SIC:o=8b-\:v	!	!	!	!	!	!	!	!	!	!	!	!	!	!	!	!	!	!	!	!	!	!	!	!	!
.	.	8b-\)J	.	8dd\J)	.	.	.	.	.	.	.	.	.	.	.	.	.	.	.	.	.	.	.	.	.	.	.
!	!	!LO:SIC:o=8ee-\:v	!	!	!	!	!	!	!	!	!	!	!	!	!	!	!	!	!	!	!	!	!	!	!	!	!
.	.	(8ee-\L	.	(>8gg\L	.	.	.	.	.	.	.	.	.	.	.	.	.	.	.	.	.	.	.	.	.	.	.
!	!	!LO:SIC:o=8dd\J:v	!	!	!	!	!	!	!	!	!	!	!	!	!	!	!	!	!	!	!	!	!	!	!	!	!
.	.	8dd\J)	.	8ff\J)	.	.	.	.	.	.	.	.	.	.	.	.	.	.	.	.	.	.	.	.	.	.	.
=5	=5	=5	=5	=5	=5	=5	=5	=5	=5	=5	=5	=5	=5	=5	=5	=5	=5	=5	=5	=5	=5	=5	=5	=5	=5	=5	=5
!	!	!	!	!	!LO:DY:a:rj:t=for	!	!	!	!	!	!	!	!	!	!	!	!	!	!	!	!	!	!	!	!	!	!
!	!	!	!LO:DY:t= :mod=%s	!	!	!	!	!	!	!	!	!	!	!	!	!	!	!	!	!	!	!	!	!	!	!	!
!	!	!	!LO:MO:mod=!LO&colon;DY&colon;ed=	!	!	!	!	!	!	!	!	!	!	!	!	!	!	!	!	!	!	!	!	!	!	!	!
!	!	!	!null	!	!	!	!	!	!	!	!	!	!	!	!	!	!	!	!	!	!	!	!	!	!	!	!
1ryy	.	4b-/ 4d/	f	4bb-/ 4dd/ 4d/	f	4r	.	.	.	4r	.	.	.	4r	.	.	.	4r	.	.	.	4d/	4b-\	4b-\	.	4bb-\	.
*	*	*tremolo	*	*	*	*	*	*	*	*	*	*	*	*	*	*	*	*	*	*	*	*	*	*	*	*	*
!	!	!	!LO:DY:a:t=for	!	!	!	!	!	!	!	!	!	!	!	!	!	!	!	!	!	!	!	!	!	!	!	!
!	!	!	!LO:MO:mod=.	!	!	!	!	!	!	!	!	!	!	!	!	!	!	!	!	!	!	!	!	!	!	!	!
.	.	16d/LL	f	16b-\LL	.	4BB-/	.	ter-	ter-	4d\	.	Ter-	ter-	4f\	.	Ter-	ter-	4b-\	.	Ter-	ter-	2d/	2cc\	2b-\	.	2b-\	.
.	.	16d/	.	16a\	.	.	.	.	.	.	.	.	.	.	.	.	.	.	.	.	.	.	.	.	.	.	.
.	.	16d/	.	16b-\	.	.	.	.	.	.	.	.	.	.	.	.	.	.	.	.	.	.	.	.	.	.	.
.	.	16d/	.	16cc\JJ	.	.	.	.	.	.	.	.	.	.	.	.	.	.	.	.	.	.	.	.	.	.	.
.	.	16d/	.	4b-\	.	4D\	.	-ti-	-ti-	4d\	.	-ti-	-ti-	4f\	.	-ti-	-ti-	4b-\	.	-ti-	-ti-	.	.	.	.	.	.
.	.	16d/	.	.	.	.	.	.	.	.	.	.	.	.	.	.	.	.	.	.	.	.	.	.	.	.	.
.	.	16d/	.	.	.	.	.	.	.	.	.	.	.	.	.	.	.	.	.	.	.	.	.	.	.	.	.
.	.	16d/JJ	.	.	.	.	.	.	.	.	.	.	.	.	.	.	.	.	.	.	.	.	.	.	.	.	.
.	.	16f/LL	.	4cc\	.	4F\	.	-a	-a	4A\	.	-a	-a	4f\	.	-a	-a	4cc\	.	-a	-a	4f/	4cc\	4a\	.	4cc\	.
.	.	16f/	.	.	.	.	.	.	.	.	.	.	.	.	.	.	.	.	.	.	.	.	.	.	.	.	.
.	.	16f/	.	.	.	.	.	.	.	.	.	.	.	.	.	.	.	.	.	.	.	.	.	.	.	.	.
.	.	16f/JJ	.	.	.	.	.	.	.	.	.	.	.	.	.	.	.	.	.	.	.	.	.	.	.	.	.
!	!	!LO:LB:g=original	!	!	!	!	!	!	!	!	!	!	!	!	!	!	!	!	!	!	!	!	!	!	!	!	!
=6	=6	=6	=6	=6	=6	=6	=6	=6	=6	=6	=6	=6	=6	=6	=6	=6	=6	=6	=6	=6	=6	=6	=6	=6	=6	=6	=6
!	!	!	!	!	!	!LO:SIC:o=(>4B-\:v	!	!	!	!	!	!	!	!	!	!	!	!	!	!	!	!	!	!	!	!	!
1ryy	.	16b-\LL	.	4dd\	.	4B-\	.	di-	di-	4B-\	.	Di-	di-	2f\	.	di-	di-	4dd\	.	Di-	di-	4b-\	4dd\	4b-\	.	4dd\	.
.	.	16b-\	.	.	.	.	.	.	.	.	.	.	.	.	.	.	.	.	.	.	.	.	.	.	.	.	.
.	.	16b-\	.	.	.	.	.	.	.	.	.	.	.	.	.	.	.	.	.	.	.	.	.	.	.	.	.
.	.	16b-\JJ	.	.	.	.	.	.	.	.	.	.	.	.	.	.	.	.	.	.	.	.	.	.	.	.	.
.	.	.	.	8qqff/	.	.	.	.	.	.	.	.	.	.	.	.	.	.	.	.	.	.	.	.	.	.	.
!	!	!	!	!	!	!LO:SIC:o=4F\):v	!	!	!	!	!	!	!	!	!	!	!	!	!	!	!	!	!	!	!	!	!
.	.	16cc\LL	.	8ee-\L	.	4F\	.	.	.	4c\	.	.	.	.	.	.	.	4ee-\	.	.	.	4cc\	4ee-\	4cc\	.	4ee-\	.
.	.	16cc\	.	.	.	.	.	.	.	.	.	.	.	.	.	.	.	.	.	.	.	.	.	.	.	.	.
.	.	16cc\	.	16dd\L	.	.	.	.	.	.	.	.	.	.	.	.	.	.	.	.	.	.	.	.	.	.	.
.	.	16cc\JJ	.	16ee-\JJ	.	.	.	.	.	.	.	.	.	.	.	.	.	.	.	.	.	.	.	.	.	.	.
*	*	*Xtremolo	*	*	*	*	*	*	*	*	*	*	*	*	*	*	*	*	*	*	*	*	*	*	*	*	*
.	.	4dd\	.	4ff\	.	4BB-/	.	-e	-e	4d\	.	-e	-e	4f\	.	-e	-e	4ff\	.	-e	-e	4dd\	4ff\	4dd\	.	4ff\	.
.	.	4r	.	16bb-\LL	.	4r	.	.	.	4r	.	.	.	4r	.	.	.	4r	.	.	.	4r	4r	4r	.	4r	.
.	.	.	.	16aa\	.	.	.	.	.	.	.	.	.	.	.	.	.	.	.	.	.	.	.	.	.	.	.
.	.	.	.	16gg\	.	.	.	.	.	.	.	.	.	.	.	.	.	.	.	.	.	.	.	.	.	.	.
.	.	.	.	16ff\JJ	.	.	.	.	.	.	.	.	.	.	.	.	.	.	.	.	.	.	.	.	.	.	.
!	!	!	!	!	!	!	!	!	!	!	!	!	!	!	!	!	!	!	!	!	!	!	!LO:LB:g=original	!	!	!	!
=7	=7	=7	=7	=7	=7	=7	=7	=7	=7	=7	=7	=7	=7	=7	=7	=7	=7	=7	=7	=7	=7	=7	=7	=7	=7	=7	=7
1ryy	.	16f\LL	.	16ff\LL	.	4r	.	.	.	4r	.	.	.	4r	.	.	.	4r	.	.	.	4f/	4cc\	1cc	.	1ee-	.
.	.	16cc\	.	16ee-\	.	.	.	.	.	.	.	.	.	.	.	.	.	.	.	.	.	.	.	.	.	.	.
.	.	16f\	.	16dd\	.	.	.	.	.	.	.	.	.	.	.	.	.	.	.	.	.	.	.	.	.	.	.
.	.	16cc\JJ	.	16ee-\JJ	.	.	.	.	.	.	.	.	.	.	.	.	.	.	.	.	.	.	.	.	.	.	.
*	*	*rep	*	*	*	*	*	*	*	*	*	*	*	*	*	*	*	*	*	*	*	*	*	*	*	*	*
.	.	16f\LL	.	16ff\LL	.	4A\	.	Se-	se-	4c\	.	Se-	se-	4f\	.	Se-	se-	4ee-\	.	Se-	se-	8f/L	8cc\L	.	.	.	.
.	.	16cc\	.	16ee-\	.	.	.	.	.	.	.	.	.	.	.	.	.	.	.	.	.	.	.	.	.	.	.
.	.	16f\	.	16dd\	.	.	.	.	.	.	.	.	.	.	.	.	.	.	.	.	.	8f/J	8cc\J	.	.	.	.
.	.	16cc\JJ	.	16ee-\JJ	.	.	.	.	.	.	.	.	.	.	.	.	.	.	.	.	.	.	.	.	.	.	.
*	*	*Xrep	*	*	*	*	*	*	*	*	*	*	*	*	*	*	*	*	*	*	*	*	*	*	*	*	*
*	*	*rep	*	*	*	*	*	*	*	*	*	*	*	*	*	*	*	*	*	*	*	*	*	*	*	*	*
.	.	16f\LL	.	16f\LL	.	4A\	.	-cun-	-cun-	4c\	.	-cun-	-cun-	4f\	.	-cun-	-cun-	4ee-\	.	-cun-	-cun-	4f/	4cc\	.	.	.	.
.	.	16cc\	.	16ee-\	.	.	.	.	.	.	.	.	.	.	.	.	.	.	.	.	.	.	.	.	.	.	.
.	.	16f\	.	16f\	.	.	.	.	.	.	.	.	.	.	.	.	.	.	.	.	.	.	.	.	.	.	.
.	.	16cc\JJ	.	16ee-\JJ	.	.	.	.	.	.	.	.	.	.	.	.	.	.	.	.	.	.	.	.	.	.	.
*	*	*Xrep	*	*	*	*	*	*	*	*	*	*	*	*	*	*	*	*	*	*	*	*	*	*	*	*	*
*	*	*rep	*	*rep	*	*	*	*	*	*	*	*	*	*	*	*	*	*	*	*	*	*	*	*	*	*	*
.	.	16f\LL	.	16f\LL	.	8A\	.	-du(m)	-du(m)	8c\	.	-dum	-dum	8f\	.	-du(m)	-du(m)	8ee-\	.	-du(m)	-du(m)	4r	4r	.	.	.	.
.	.	16cc\	.	16ee-\	.	.	.	.	.	.	.	.	.	.	.	.	.	.	.	.	.	.	.	.	.	.	.
.	.	16f\	.	16f\	.	8A\	.	Scri-	scri-	8c\	.	.	scri-	8f\	.	scrip-	scri-	8ee-\	.	scrip-	scri-	.	.	.	.	.	.Scri-
.	.	16cc\JJ	.	16ee-\JJ	.	.	.	.	.	.	.	.	.	.	.	.	.	.	.	.	.	.	.	.	.	.	.
*	*	*Xrep	*	*Xrep	*	*	*	*	*	*	*	*	*	*	*	*	*	*	*	*	*	*	*	*	*	*	*
!	!	!	!	!	!	!LO:LB:g=original	!	!	!	!	!	!	!	!	!	!	!	!	!	!	!	!	!	!	!	!	!
=8	=8	=8	=8	=8	=8	=8	=8	=8	=8	=8	=8	=8	=8	=8	=8	=8	=8	=8	=8	=8	=8	=8	=8	=8	=8	=8	=8
*	*	*2\right	*	*	*	*	*	*	*	*	*	*	*	*	*	*	*	*	*	*	*	*	*	*	*	*	*
*	*	*tremolo	*	*	*	*	*	*	*	*	*	*	*	*	*	*	*	*	*	*	*	*	*	*	*	*	*
1ryy	.	16f\LL	.	16ee-\LL	.	4B-\	.	-ptu-	-ptu-	4B-\	.	Scrip-	-ptu-	4f\	.	-tu-	-ptu-	4dd\	.	-tu-	-ptu-	4b-\	4dd\	1b-	.	1dd	.
.	.	16dd\	.	16dd\	.	.	.	.	.	.	.	.	.	.	.	.	.	.	.	.	.	.	.	.	.	.	.
.	.	16f\	.	16ee-\	.	.	.	.	.	.	.	.	.	.	.	.	.	.	.	.	.	.	.	.	.	.	.
.	.	16dd\	.	16cc\JJ	.	.	.	.	.	.	.	.	.	.	.	.	.	.	.	.	.	.	.	.	.	.	.
!	!	!	!	!	!	!	!	!	!	!	!	!	!	!LO:LB:g=original	!	!	!	!	!	!	!	!	!	!	!	!	!
.	.	16f\	.	16ee-\LL	.	4B-\	.	-ras	-ras.	4B-\	.	-tu-	-ras.	4f\	.	-ras	-ras.	4dd\	.	-ras	-ras.	8b-\L	8dd\L	.	.	.	.
.	.	16dd\	.	16dd\	.	.	.	.	.	.	.	.	.	.	.	.	.	.	.	.	.	.	.	.	.	.	.
.	.	16f\	.	16cc\	.	.	.	.	.	.	.	.	.	.	.	.	.	.	.	.	.	8b-\J	8dd\J	.	.	.	.
.	.	16dd\JJ	.	16dd\JJ	.	.	.	.	.	.	.	.	.	.	.	.	.	.	.	.	.	.	.	.	.	.	.
.	.	16f\LL	.	16f/LL	.	4B-\	.	et	Et	4B-\	.	-ras	Et	4f\	.	et	Et	4dd\	.	et	Et	4b-\	4dd\	.	.	.	.
.	.	16dd\	.	16dd/	.	.	.	.	.	.	.	.	.	.	.	.	.	.	.	.	.	.	.	.	.	.	.
.	.	16f\	.	16f/	.	.	.	.	.	.	.	.	.	.	.	.	.	.	.	.	.	.	.	.	.	.	.
.	.	16dd\	.	16dd/JJ	.	.	.	.	.	.	.	.	.	.	.	.	.	.	.	.	.	.	.	.	.	.	.
*	*	*	*	*rep	*	*	*	*	*	*	*	*	*	*	*	*	*	*	*	*	*	*	*	*	*	*	*
.	.	16f\	.	16f/LL	.	4B-\	.	as-	a-	4B-\	.	et	a-	4f\	.	as-	a-	4dd\	.	aſ-	a-	4r	4r	.	.	.	.
.	.	16dd\	.	16dd/	.	.	.	.	.	.	.	.	.	.	.	.	.	.	.	.	.	.	.	.	.	.	.
.	.	16f\	.	16f/	.	.	.	.	.	.	.	.	.	.	.	.	.	.	.	.	.	.	.	.	.	.	.
.	.	16dd\JJ	.	16dd/JJ	.	.	.	.	.	.	.	.	.	.	.	.	.	.	.	.	.	.	.	.	.	.	.
*	*	*	*	*Xrep	*	*	*	*	*	*	*	*	*	*	*	*	*	*	*	*	*	*	*	*	*	*	*
!	!	!	!	!LO:LB:g=original	!	!	!	!	!	!LO:LB:g=original	!	!	!	!	!	!	!	!LO:LB:g=original	!	!	!	!	!	!	!	!	!
=9	=9	=9	=9	=9	=9	=9	=9	=9	=9	=9	=9	=9	=9	=9	=9	=9	=9	=9	=9	=9	=9	=9	=9	=9	=9	=9	=9
1ryy	.	16f\LL	.	16ff\LL	.	4A\	.	-cen-	-scen-	4c\	.	a-	-scen-	4f\	.	-cen-	-scen-	4ee-\	.	-cen-	-scen-	4f/	4cc\	1cc	.	1ee-	.
.	.	16cc\	.	16ee-\	.	.	.	.	.	.	.	.	.	.	.	.	.	.	.	.	.	.	.	.	.	.	.
.	.	16f\	.	16dd\	.	.	.	.	.	.	.	.	.	.	.	.	.	.	.	.	.	.	.	.	.	.	.
.	.	16cc\	.	16ee-\JJ	.	.	.	.	.	.	.	.	.	.	.	.	.	.	.	.	.	.	.	.	.	.	.
.	.	16f\	.	16ff\LL	.	8A\	.	-dit	-dit	8c\	.	-scen-	-dit	8f\	.	-dit	-dit	8ee-\	.	-dit	-dit	8f/L	8cc\L	.	.	.	.
.	.	16cc\	.	16ee-\	.	.	.	.	.	.	.	.	.	.	.	.	.	.	.	.	.	.	.	.	.	.	.
.	.	16f\	.	16dd\	.	8A\	.	in	in	8c\	.	-dit	in	8f\	.	in	in	8ee-\	.	in	in	8f/J	8cc\J	.	.	.	.
.	.	16cc\JJ	.	16ee-\JJ	.	.	.	.	.	.	.	.	.	.	.	.	.	.	.	.	.	.	.	.	.	.	.
*	*	*rep	*	*	*	*	*	*	*	*	*	*	*	*	*	*	*	*	*	*	*	*	*	*	*	*	*
.	.	16f\LL	.	16f\LL	.	4A\	.	ce-	coe-	4c\	.	in	coe-	4f\	.	ce-	coe-	4ee-\	.	ce-	coe-	4f/	4cc\	.	.	.	.
.	.	16cc\	.	16ee-\	.	.	.	.	.	.	.	.	.	.	.	.	.	.	.	.	.	.	.	.	.	.	.
.	.	16f\	.	16f\	.	.	.	.	.	.	.	.	.	.	.	.	.	.	.	.	.	.	.	.	.	.	.
.	.	16cc\	.	16ee-\JJ	.	.	.	.	.	.	.	.	.	.	.	.	.	.	.	.	.	.	.	.	.	.	.
*	*	*	*	*rep	*	*	*	*	*	*	*	*	*	*	*	*	*	*	*	*	*	*	*	*	*	*	*
.	.	16f\	.	16f\LL	.	4A\	.	-lum	-lum,	4c\	.	Ce-	-lum,	4f\	.	-lum	-lum,	4ee-\	.	-lum	-lum,	4r	4r	.	.	.	.
.	.	16cc\	.	16ee-\	.	.	.	.	.	.	.	.	.	.	.	.	.	.	.	.	.	.	.	.	.	.	.
.	.	16f\	.	16f\	.	.	.	.	.	.	.	.	.	.	.	.	.	.	.	.	.	.	.	.	.	.	.
.	.	16cc\JJ	.	16ee-\JJ	.	.	.	.	.	.	.	.	.	.	.	.	.	.	.	.	.	.	.	.	.	.	.
*	*	*Xrep	*	*Xrep	*	*	*	*	*	*	*	*	*	*	*	*	*	*	*	*	*	*	*	*	*	*	*
!	!	!	!	!	!	!	!	!	!	!	!	!	!	!	!	!	!	!	!	!	!	!	!	!LO:LB:g=original	!	!LO:LB:g=original	!
=10	=10	=10	=10	=10	=10	=10	=10	=10	=10	=10	=10	=10	=10	=10	=10	=10	=10	=10	=10	=10	=10	=10	=10	=10	=10	=10	=10
*	*	*	*	*	*	*	*	*	*	*	*	*	*	*	*	*ij	*	*	*	*	*	*	*	*	*	*	*
!	!	!	!	!	!	!	!	!	!	!	!	!	!	!LO:TX:t=P:problem=za mało nut w stosunku do sylab	!	!	!	!	!	!	!	!	!	!	!	!	!
1ryy	.	16f\LL	.	16ee-\LL	.	4B-\	.	Se-	se-	4B-\	.	.	se-	4f\	.	cen?-	se-	4dd\	.	Se-	se-	4b-\	4dd\	2b-\	.	1dd	.
.	.	16dd\	.	16dd\	.	.	.	.	.	.	.	.	.	.	.	.	.	.	.	.	.	.	.	.	.	.	.
.	.	16f\	.	16ee-\	.	.	.	.	.	.	.	.	.	.	.	.	.	.	.	.	.	.	.	.	.	.	.
.	.	16dd\	.	16cc\JJ	.	.	.	.	.	.	.	.	.	.	.	.	.	.	.	.	.	.	.	.	.	.	.
.	.	16f\	.	16ee-\LL	.	8B-\	.	-det	-det	8B-\	.	-lum	-det	8f\	.	-dit	-det	8dd\	.	-det	-det	8b-\L	8dd\L	.	.	.	.
.	.	16dd\	.	16dd\	.	.	.	.	.	.	.	.	.	.	.	.	.	.	.	.	.	.	.	.	.	.	.
.	.	16f\	.	16cc\	.	8B-\	.	ad	ad	8B-\	.	Se-	ad	8f\	.	in	in	8dd\	.	ad	ad	8b-\J	8dd\J	.	.	.	.
.	.	16dd\JJ	.	16dd\JJ	.	.	.	.	.	.	.	.	.	.	.	.	.	.	.	.	.	.	.	.	.	.	.
*	*	*tremolo	*	*tremolo	*	*	*	*	*	*	*	*	*	*	*	*	*	*	*	*	*	*	*	*	*	*	*
*	*	*rep	*	*	*	*	*	*	*	*	*	*	*	*	*	*	*	*	*	*	*	*	*	*	*	*	*
.	.	16f\LL	.	16f/LL	.	4B-\	.	dex-	dex-	4B-\	.	-det	-dex-	4f\	.	ce-	coe-	4dd\	.	dex-	dex-	4b-\	4dd\	2b-\	.	.	.
.	.	16dd\	.	16dd/	.	.	.	.	.	.	.	.	.	.	.	.	.	.	.	.	.	.	.	.	.	.	.
.	.	16f\	.	16f/	.	.	.	.	.	.	.	.	.	.	.	.	.	.	.	.	.	.	.	.	.	.	.
.	.	16dd\	.	16dd/	.	.	.	.	.	.	.	.	.	.	.	.	.	.	.	.	.	.	.	.	.	.	.
.	.	16f\	.	16f/	.	8B-\	.	-te-	-te-	8B-\	.	ad	te-	4f\	.	-lum	-lum	8dd\	.	-te-	-te-	4r	4r	.	.	.	.
*	*	*	*	*	*	*	*	*	*	*	*	*	*	*	*	*Xij	*	*	*	*	*	*	*	*	*	*	*
.	.	16dd\	.	16dd/	.	.	.	.	.	.	.	.	.	.	.	.	.	.	.	.	.	.	.	.	.	.	.
.	.	16f\	.	16f/	.	8B-\	.	-ram	-ram	8B-\	.	dex-	-ram	.	.	.	.	8dd\	.	-ram	-ram	.	.	.	.	.	.
.	.	16dd\JJ	.	16dd/JJ	.	.	.	.	.	.	.	.	.	.	.	.	.	.	.	.	.	.	.	.	.	.	.
*	*	*Xrep	*	*	*	*	*	*	*	*	*	*	*	*	*	*	*	*	*	*	*	*	*	*	*	*	*
*	*	*	*	*Xtremolo	*	*	*	*	*	*	*	*	*	*	*	*	*	*	*	*	*	*	*	*	*	*	*
=11	=11	=11	=11	=11	=11	=11	=11	=11	=11	=11	=11	=11	=11	=11	=11	=11	=11	=11	=11	=11	=11	=11	=11	=11	=11	=11	=11
1ryy	.	16g\LL	.	16dd\LL	.	4E-\	.	Pa-	Pa-	4B-\	.	-te-	Pa-	4g\	.	se-	se-	4cc\	.	Pa-	Pa-	4cc\	4cc\	2cc\	.	2cc\	.
.	.	16cc\	.	16cc\	.	.	.	.	.	.	.	.	.	.	.	.	.	.	.	.	.	.	.	.	.	.	.
.	.	16g\	.	16bn\	.	.	.	.	.	.	.	.	.	.	.	.	.	.	.	.	.	.	.	.	.	.	.
.	.	16cc\	.	16cc\JJ	.	.	.	.	.	.	.	.	.	.	.	.	.	.	.	.	.	.	.	.	.	.	.
.	.	16g\	.	16dd\LL	.	8E-\	.	-tris	-tris,	8B-\	.	-ram	-tris,	8g\	.	-det	-det	8cc\	.	-tris	-tris,	8cc\L	8cc\L	.	.	.	.
.	.	16cc\	.	16cc\	.	.	.	.	.	.	.	.	.	.	.	.	.	.	.	.	.	.	.	.	.	.	.
.	.	16g\	.	16bn\	.	8E-\	.	et	et	8B-\	.	Pa-	et	8g\	.	ad	ad	8cc\	.	et	et	8cc\J	8cc\J	.	.	.	.
.	.	16cc\JJ	.	16cc\JJ	.	.	.	.	.	.	.	.	.	.	.	.	.	.	.	.	.	.	.	.	.	.	.
*	*	*rep	*	*	*	*	*	*	*	*	*	*	*	*	*	*	*	*	*	*	*	*	*	*	*	*	*
.	.	16g\LL	.	16cc\LL	.	4En\	.	i-	i-	4B-\	.	.	i-	4g\	.	dex-	dex-	4cc\	.	i-	i-	4cc\	4cc\	2gg\	.	2bb-\	.
.	.	16cc\	.	16bb-\	.	.	.	.	.	.	.	.	.	.	.	.	.	.	.	.	.	.	.	.	.	.	.
.	.	16g\	.	16cc\	.	.	.	.	.	.	.	.	.	.	.	.	.	.	.	.	.	.	.	.	.	.	.
.	.	16cc\	.	16bb-\JJ	.	.	.	.	.	.	.	.	.	.	.	.	.	.	.	.	.	.	.	.	.	.	.
*	*	*	*	*rep	*	*	*	*	*	*	*	*	*	*	*	*	*	*	*	*	*	*	*	*	*	*	*
.	.	16g\	.	16cc\LL	.	4E\	.	-te-	-te-	4B-\	.	-tris	-te-	4g\	.	-te-	-te-	4cc\	.	-te-	-te-	4r	4r	.	.	.	.
.	.	16cc\	.	16bb-\	.	.	.	.	.	.	.	.	.	.	.	.	.	.	.	.	.	.	.	.	.	.	.
.	.	16g\	.	16cc\	.	.	.	.	.	.	.	.	.	.	.	.	.	.	.	.	.	.	.	.	.	.	.
.	.	16cc\JJ	.	16bb-\JJ	.	.	.	.	.	.	.	.	.	.	.	.	.	.	.	.	.	.	.	.	.	.	.
*	*	*Xrep	*	*Xrep	*	*	*	*	*	*	*	*	*	*	*	*	*	*	*	*	*	*	*	*	*	*	*
=12	=12	=12	=12	=12	=12	=12	=12	=12	=12	=12	=12	=12	=12	=12	=12	=12	=12	=12	=12	=12	=12	=12	=12	=12	=12	=12	=12
1ryy	.	16a\LL	.	16bb-\LL	.	4F\	.	-rum	-rum	4A\	.	et	-rum	4a\	.	-ra(m)	-ra(m)	4cc\	.	-rum	-rum	4f/	4cc\	1ff	.	1aa	.
.	.	16cc\	.	16aa\	.	.	.	.	.	.	.	.	.	.	.	.	.	.	.	.	.	.	.	.	.	.	.
.	.	16a\	.	16gg\	.	.	.	.	.	.	.	.	.	.	.	.	.	.	.	.	.	.	.	.	.	.	.
.	.	16cc\	.	16aa\JJ	.	.	.	.	.	.	.	.	.	.	.	.	.	.	.	.	.	.	.	.	.	.	.
.	.	16a\	.	16bb-\LL	.	8F\	.	ven-	ven-	4f\	.	i-	ven-	4a\	.	De-	De-	4cc\	.	ven-	ven-	8f/L	8cc\L	.	.	.	.
.	.	16cc\	.	16aa\	.	.	.	.	.	.	.	.	.	.	.	.	.	.	.	.	.	.	.	.	.	.	.
.	.	16a\	.	16gg\	.	8F\	.	-tu-	-tu-	.	.	.	.	.	.	.	.	.	.	.	.	8f/J	8cc\J	.	.	.	.
.	.	16cc\JJ	.	16aa\JJ	.	.	.	.	.	.	.	.	.	.	.	.	.	.	.	.	.	.	.	.	.	.	.
!	!	!LO:LB:g=original	!	!	!	!LO:LB:g=original	!	!	!	!	!	!	!	!	!	!	!	!	!	!	!	!	!	!	!	!	!
.	.	16a\LL	.	16cc\LL	.	4F\	.	-rus	-rus,	4f\	.	-te-	-tu-	4a\	.	-i	-i	4cc\	.	-tu-	-tu-	4f/	4cc\	.	.	.	.
.	.	16cc\	.	16aa\	.	.	.	.	.	.	.	.	.	.	.	.	.	.	.	.	.	.	.	.	.	.	.
.	.	16a\	.	16cc\	.	.	.	.	.	.	.	.	.	.	.	.	.	.	.	.	.	.	.	.	.	.	.
.	.	16cc\	.	16aa\JJ	.	.	.	.	.	.	.	.	.	.	.	.	.	.	.	.	.	.	.	.	.	.	.
*	*	*	*	*	*	*	*	*ij	*ij	*	*	*	*	*	*	*	*	*	*	*	*	*	*	*	*	*	*
!	!	!	!	!LO:LB:g=original	!	!	!	!	!	!	!	!	!	!	!	!	!	!	!	!	!	!	!	!	!	!	!
.	.	16a\	.	16cc\LL	.	4F\	.	i-	i-	4f\	.	-rum	-rus	4a\	.	Pa-	Pa-	4cc\	.	-rus	-rus	4r	4r	.	.	.	.
.	.	16cc\	.	16aa\	.	.	.	.	.	.	.	.	.	.	.	.	.	.	.	.	.	.	.	.	.	.	.
.	.	16a\	.	16cc\	.	.	.	.	.	.	.	.	.	.	.	.	.	.	.	.	.	.	.	.	.	.	.
.	.	16cc\JJ	.	16aa\JJ	.	.	.	.	.	.	.	.	.	.	.	.	.	.	.	.	.	.	.	.	.	.	.
!	!	!	!	!	!	!	!	!	!	!	!	!	!	!	!	!	!	!	!	!	!	!LO:LB:g=original	!	!	!	!	!
=13	=13	=13	=13	=13	=13	=13	=13	=13	=13	=13	=13	=13	=13	=13	=13	=13	=13	=13	=13	=13	=13	=13	=13	=13	=13	=13	=13
1ryy	.	16g\LL	.	16ccc\LL	.	4En\	.	-te-	-te-	4g\	.	ven-	est	4b-\	.	-tris	-tris,	4cc\	.	est	est	4cc\	4cc\	1gg	.	1bb-	.
.	.	16cc\	.	16bb-\	.	.	.	.	.	.	.	.	.	.	.	.	.	.	.	.	.	.	.	.	.	.	.
.	.	16g\	.	16aa\	.	.	.	.	.	.	.	.	.	.	.	.	.	.	.	.	.	.	.	.	.	.	.
.	.	16cc\	.	16bb-\JJ	.	.	.	.	.	.	.	.	.	.	.	.	.	.	.	.	.	.	.	.	.	.	.
.	.	16g\	.	16ccc\LL	.	4E\	.	-rum	-rum	4g\	.	-tu-	cum	4b-\	.	et	et	4cc\	.	Cum	cum	8cc\L	8cc\L	.	.	.	.
.	.	16cc\	.	16bb-\	.	.	.	.	.	.	.	.	.	.	.	.	.	.	.	.	.	.	.	.	.	.	.
.	.	16g\	.	16aa\	.	.	.	.	.	.	.	.	.	.	.	.	.	.	.	.	.	8cc\J	8cc\J	.	.	.	.
.	.	16cc\JJ	.	16bb-\JJ	.	.	.	.	.	.	.	.	.	.	.	.	.	.	.	.	.	.	.	.	.	.	.
!	!	!	!	!	!	!	!	!	!	!	!	!	!	!LO:LB:g=original	!	!	!	!	!	!	!	!	!	!	!	!	!
*	*	*rep	*	*	*	*	*	*	*	*	*	*	*	*	*	*	*	*	*	*	*	*	*	*	*	*	*
.	.	16g\LL	.	16cc\LL	.	4E\	.	ven-	ven-	4g\	.	-rus	glo-	4b-\	.	i-	i-	4cc\	.	glo-	glo-	4cc\	4cc\	.	.	.	.
.	.	16cc\	.	16bb-\	.	.	.	.	.	.	.	.	.	.	.	.	.	.	.	.	.	.	.	.	.	.	.
.	.	16g\	.	16cc\	.	.	.	.	.	.	.	.	.	.	.	.	.	.	.	.	.	.	.	.	.	.	.
.	.	16cc\	.	16bb-\JJ	.	.	.	.	.	.	.	.	.	.	.	.	.	.	.	.	.	.	.	.	.	.	.
*	*	*	*	*rep	*	*	*	*	*	*	*	*	*	*	*	*	*	*	*	*	*	*	*	*	*	*	*
.	.	16g\	.	16cc\LL	.	4E\	.	-tu-	-tu-	4g\	.	est	-ri-	4b-\	.	-te-	-te-	4cc\	.	-ri-	-ri-	4r	4cc\	.	.	.	.
.	.	16cc\	.	16bb-\	.	.	.	.	.	.	.	.	.	.	.	.	.	.	.	.	.	.	.	.	.	.	.
.	.	16g\	.	16cc\	.	.	.	.	.	.	.	.	.	.	.	.	.	.	.	.	.	.	.	.	.	.	.
.	.	16cc\JJ	.	16bb-\JJ	.	.	.	.	.	.	.	.	.	.	.	.	.	.	.	.	.	.	.	.	.	.	.
*	*	*Xrep	*	*Xrep	*	*	*	*	*	*	*	*	*	*	*	*	*	*	*	*	*	*	*	*	*	*	*
=14	=14	=14	=14	=14	=14	=14	=14	=14	=14	=14	=14	=14	=14	=14	=14	=14	=14	=14	=14	=14	=14	=14	=14	=14	=14	=14	=14
1ryy	.	16cc\LL	.	8aa\L	.	4F\	.	-rus	-rus,	4f\	.	cu(m)	-a,	4a\	.	-rum	-rum,	4cc\	.	-a	-a,	4f/	4cc\	4ff\	.	4aa\	.
*	*	*	*	*	*	*	*	*Xij	*Xij	*	*	*	*	*	*	*	*	*	*	*	*	*	*	*	*	*	*
.	.	16cc\	.	.	.	.	.	.	.	.	.	.	.	.	.	.	.	.	.	.	.	.	.	.	.	.	.
.	.	16cc\	.	8gg\	.	.	.	.	.	.	.	.	.	.	.	.	.	.	.	.	.	.	.	.	.	.	.
.	.	16cc\	.	.	.	.	.	.	.	.	.	.	.	.	.	.	.	.	.	.	.	.	.	.	.	.	.
.	.	16cc\	.	8ff\	.	4r	.	.	.	4r	.	.	.	4r	.	.	.	4r	.	.	.	4r	4r	4r	.	4r	.
.	.	16cc\	.	.	.	.	.	.	.	.	.	.	.	.	.	.	.	.	.	.	.	.	.	.	.	.	.
.	.	16cc\	.	8een\J	.	.	.	.	.	.	.	.	.	.	.	.	.	.	.	.	.	.	.	.	.	.	.
.	.	16cc\JJ	.	.	.	.	.	.	.	.	.	.	.	.	.	.	.	.	.	.	.	.	.	.	.	.	.
.	.	16f/LL	.	8ff\L	.	8A\	.	Ju-	ju-	8c\	.	glo-	ju-	8f\	.	Ju-	ju-	8ff\	.	Ju-	ju-	2r	2r	8r	.	8r	.
.	.	16f/	.	.	.	.	.	.	.	.	.	.	.	.	.	.	.	.	.	.	.	.	.	.	.	.	.
.	.	16f/	.	8ee-X\	.	8c\	.	-di-	-di-	8A\	.	-ri-	-di-	8f\	.	-di-	-di-	8ee-X\	.	-di-	-di-	.	.	8f/L	.	8eeX\L	.
.	.	16f/	.	.	.	.	.	.	.	.	.	.	.	.	.	.	.	.	.	.	.	.	.	.	.	.	.
!	!	!	!	!	!	!	!	!	!	!LO:LB:g=original	!	!	!	!	!	!	!	!LO:LB:g=original	!	!	!	!	!	!	!	!	!
.	.	16f/	.	8dd\	.	8B-\L	.	-ca-	-ca-	8B-\L	.	-a	-ca-	4f\	.	-ca-	-ca-	8dd\L	.	-ca-	-ca-	.	.	8f/	.	8dd\	.
.	.	16f/	.	.	.	.	.	.	.	.	.	.	.	.	.	.	.	.	.	.	.	.	.	.	.	.	.
.	.	16f/	.	8cc\J	.	8A\J	.	.	.	8c\J	.	.	.	.	.	.	.	8cc\J	.	.	.	.	.	8f/J	.	8cc\J	.
.	.	16f/JJ	.	.	.	.	.	.	.	.	.	.	.	.	.	.	.	.	.	.	.	.	.	.	.	.	.
=15	=15	=15	=15	=15	=15	=15	=15	=15	=15	=15	=15	=15	=15	=15	=15	=15	=15	=15	=15	=15	=15	=15	=15	=15	=15	=15	=15
1ryy	.	16f/LL	.	8dd\L	.	8B-\	.	-re	-re	8d\	.	re	-re	8f\	.	-re	-re	8dd\	.	-re	-re	0r	0r	8f/	.	8dd\	.
.	.	16f/	.	.	.	.	.	.	.	.	.	.	.	.	.	.	.	.	.	.	.	.	.	.	.	.	.
.	.	16f/	.	16ddd\L	.	8A\	.	vi-	vi-	8d\	.	vi-	vi-	8d\	.	vi-	vi-	8cc\	.	vi-	vi-	.	.	8r	.	8r	.
.	.	16f/JJ	.	16ccc\JJ	.	.	.	.	.	.	.	.	.	.	.	.	.	.	.	.	.	.	.	.	.	.	.
.	.	16dd/LL 16d/	.	8bb-\L	.	8G\	.	-vos	-vos	8d\	.	-vos	-vos	8d\	.	-vos	-vos	8b-\	.	-vos	-vos	.	.	4r	.	4r	.
.	.	16dd/ 16d/	.	.	.	.	.	.	.	.	.	.	.	.	.	.	.	.	.	.	.	.	.	.	.	.	.
.	.	16dd/ 16d/	.	8aa\J	.	8F#X\	.	et	et	8d\	.	et	et	8d\	.	et	et	8a\	.	et	et	.	.	.	.	.	.
.	.	16dd/JJ 16d/	.	.	.	.	.	.	.	.	.	.	.	.	.	.	.	.	.	.	.	.	.	.	.	.	.
.	.	16dd/LL 16d/	.	8bb-\L	.	8G\L	.	mor-	mor-	4d\	.	mor-	mor-	8d\L	.	mor-	mor-	4b-\	.	mor-	mor-	.	.	2r	.	2r	.
.	.	16dd/ 16d/	.	.	.	.	.	.	.	.	.	.	.	.	.	.	.	.	.	.	.	.	.	.	.	.	.
.	.	16dd/ 16d/	.	8aa\	.	8c\J	.	.	.	.	.	.	.	8a\J	.	.	.	.	.	.	.	.	.	.	.	.	.
.	.	16dd/ 16d/	.	.	.	.	.	.	.	.	.	.	.	.	.	.	.	.	.	.	.	.	.	.	.	.	.
.	.	16dd/ 16d/	.	8gg\	.	8B-\L	.	-tu-	-tu-	4d\	.	-tu-	-tu-	8g\L	.	-tu-	-tu-	4dd\	.	-tu-	-tu-	.	.	.	.	.	.
.	.	16dd/ 16d/	.	.	.	.	.	.	.	.	.	.	.	.	.	.	.	.	.	.	.	.	.	.	.	.	.
.	.	16dd/ 16d/	.	8ff#X\J	.	8A\J	.	.	.	.	.	.	.	8f#X\J	.	.	.	.	.	.	.	.	.	.	.	.	.
.	.	16dd/JJ 16d/	.	.	.	.	.	.	.	.	.	.	.	.	.	.	.	.	.	.	.	.	.	.	.	.	.
=16	=16	=16	=16	=16	=16	=16	=16	=16	=16	=16	=16	=16	=16	=16	=16	=16	=16	=16	=16	=16	=16	=16-	=16-	=16	=16	=16	=16
1ryy	.	16g/LL 16G/	.	8gg\L	.	4B-\	.	-os	-os,	4d\	.	-os	-os,	4g\	.	-os	-os,	4dd\	.	-os	-os,	.	.	0r	.	0r	.
.	.	16g/ 16G/	.	.	.	.	.	.	.	.	.	.	.	.	.	.	.	.	.	.	.	.	.	.	.	.	.
.	.	16g/ 16G/	.	8ffn\J	.	.	.	.	.	.	.	.	.	.	.	.	.	.	.	.	.	.	.	.	.	.	.
.	.	16g/ 16G/	.	.	.	.	.	.	.	.	.	.	.	.	.	.	.	.	.	.	.	.	.	.	.	.	.
.	.	16g/ 16G/	.	8een\L	.	4r	.	.	.	4r	.	.	.	4r	.	.	.	4r	.	.	.	.	.	.	.	.	.
.	.	16g/ 16G/	.	.	.	.	.	.	.	.	.	.	.	.	.	.	.	.	.	.	.	.	.	.	.	.	.
.	.	16g/ 16G/	.	8ff\J	.	.	.	.	.	.	.	.	.	.	.	.	.	.	.	.	.	.	.	.	.	.	.
.	.	16g/JJ 16G/	.	.	.	.	.	.	.	.	.	.	.	.	.	.	.	.	.	.	.	.	.	.	.	.	.
.	.	16g/LL 16G/	.	8ee\L	.	8C/	.	Cu-	cu-	8c\L	.	cu-	cu-	8g\	.	Cu-	cu-	8een\L	.	Cu-	cu-	.	.	.	.	.	.
.	.	16g/ 16G/	.	.	.	.	.	.	.	.	.	.	.	.	.	.	.	.	.	.	.	.	.	.	.	.	.
.	.	16g/ 16G/	.	8dd\J	.	8F\	.	-ius	-ius	8d\J	.	.	.	8g\	.	-ius	-ius	8dd\J	.	.	.	.	.	.	.	.	.
.	.	16g/ 16G/	.	.	.	.	.	.	.	.	.	.	.	.	.	.	.	.	.	.	.	.	.	.	.	.	.
.	.	16g/ 16G/	.	8cc\L	.	8En\L	.	Re-	re-	8en\L	.	-ius	-ius	4g\	.	Re-	re-	8cc\L	.	-ius	-ius	.	.	.	.	.	.
.	.	16g/ 16G/	.	.	.	.	.	.	.	.	.	.	.	.	.	.	.	.	.	.	.	.	.	.	.	.	.
.	.	16g/ 16G/	.	8bn\J	.	8D\J	.	.	.	8f\J	.	.	.	.	.	.	.	8bn\J	.	.	.	.	.	.	.	.	.
.	.	16g/JJ 16G/	.	.	.	.	.	.	.	.	.	.	.	.	.	.	.	.	.	.	.	.	.	.	.	.	.
!	!	!	!	!LO:LB:g=original	!	!	!	!	!	!	!	!	!	!	!	!	!	!	!	!	!	!	!	!	!	!	!
=17	=17	=17	=17	=17	=17	=17	=17	=17	=17	=17	=17	=17	=17	=17	=17	=17	=17	=17	=17	=17	=17	=17-	=17-	=17-	=17	=17-	=17
1ryy	.	16cc\LL	.	8cc\L	.	4C/	.	-gni	-gni	4en\	.	Re-	re-	8g\	.	-gni	-gni	4cc\	.	Re-	re-	1r	1r	.	.	.	.
.	.	16cc\	.	.	.	.	.	.	.	.	.	.	.	.	.	.	.	.	.	.	.	.	.	.	.	.	.
.	.	16cc\	.	16gg\L	.	.	.	.	.	.	.	.	.	8g\	.	no(n)	no(n)	.	.	.	.	.	.	.	.	.	.
.	.	16cc\	.	16ff\JJ	.	.	.	.	.	.	.	.	.	.	.	.	.	.	.	.	.	.	.	.	.	.	.
!	!	!	!	!LO:SIC:o=8ee-\L:v	!	!	!	!	!	!	!	!	!	!	!	!	!	!	!	!	!	!	!	!	!	!	!
.	.	16cc\	.	8een\L	.	4C/	.	no(n)	no(n)	8e\	.	-gni	-gni	8g\	.	e-	e-	8cc\	.	-gni	-gni	.	.	.	.	.	.
.	.	16cc\	.	.	.	.	.	.	.	.	.	.	.	.	.	.	.	.	.	.	.	.	.	.	.	.	.
.	.	16cc\	.	8dd\J	.	.	.	.	.	8e\	.	non	non	8g\	.	-rit	-rit	8cc\	.	non	non	.	.	.	.	.	.
.	.	16cc\JJ	.	.	.	.	.	.	.	.	.	.	.	.	.	.	.	.	.	.	.	.	.	.	.	.	.
!	!	!	!	!	!	!LO:LB:g=original	!	!	!	!	!	!	!	!LO:LB:g=original	!	!	!	!	!	!	!	!	!	!	!	!	!
.	.	16cc\LL	.	8cc\L	.	4En\	.	e-	e-	4e\	.	e-	e-	4g\	.	fi-	fi-	4cc\	.	e-	e-	.	.	.	.	.	.
.	.	16cc\	.	.	.	.	.	.	.	.	.	.	.	.	.	.	.	.	.	.	.	.	.	.	.	.	.
.	.	16cc\	.	8b-X\J	.	.	.	.	.	.	.	.	.	.	.	.	.	.	.	.	.	.	.	.	.	.	.
.	.	16cc\	.	.	.	.	.	.	.	.	.	.	.	.	.	.	.	.	.	.	.	.	.	.	.	.	.
.	.	16cc\	.	8a/L	.	4E\	.	-rit	-rit	4e\	.	-rit	-rit	4g\	.	-nis	-nis,	4cc\	.	-rit	-rit	.	.	.	.	.	.
.	.	16cc\	.	.	.	.	.	.	.	.	.	.	.	.	.	.	.	.	.	.	.	.	.	.	.	.	.
.	.	16cc\	.	8g/J	.	.	.	.	.	.	.	.	.	.	.	.	.	.	.	.	.	.	.	.	.	.	.
.	.	16cc\JJ	.	.	.	.	.	.	.	.	.	.	.	.	.	.	.	.	.	.	.	.	.	.	.	.	.
=18	=18	=18	=18	=18	=18	=18	=18	=18	=18	=18	=18	=18	=18	=18	=18	=18	=18	=18	=18	=18	=18	=18	=18	=18	=18	=18	=18
*	*	*	*	*	*	*	*	*	*	*	*	*	*	*	*	*ij	*ij	*	*	*	*	*	*	*	*	*	*
1ryy	.	16a\LL	.	16a/LL	.	4F\	.	fi-	fi-	4f\	.	fi-	fi-	4a\	.	fi-	fi-	4cc\	.	fi-	fi-	4f/	4cc\	1cc	.	2ff\	.
.	.	16cc\	.	16f/	.	.	.	.	.	.	.	.	.	.	.	.	.	.	.	.	.	.	.	.	.	.	.
.	.	16a\	.	16g/	.	.	.	.	.	.	.	.	.	.	.	.	.	.	.	.	.	.	.	.	.	.	.
.	.	16cc\	.	16a/JJ	.	.	.	.	.	.	.	.	.	.	.	.	.	.	.	.	.	.	.	.	.	.	.
.	.	16a\	.	16b-\LL	.	4F\	.	-nis	-nis,	4f\	.	-nis	-nis,	4a\	.	-nis	-nis,	4cc\	.	-nis	-nis,	8f/L	8cc\L	.	.	.	.
*	*	*	*	*	*	*	*	*	*	*	*	*	*	*	*	*Xij	*Xij	*	*	*	*	*	*	*	*	*	*
.	.	16cc\	.	16cc\	.	.	.	.	.	.	.	.	.	.	.	.	.	.	.	.	.	.	.	.	.	.	.
.	.	16a\	.	16dd\	.	.	.	.	.	.	.	.	.	.	.	.	.	.	.	.	.	8f/J	8cc\J	.	.	.	.
.	.	16cc\JJ	.	16ee-\JJ	.	.	.	.	.	.	.	.	.	.	.	.	.	.	.	.	.	.	.	.	.	.	.
*	*	*rep	*	*	*	*	*	*	*	*	*	*	*	*	*	*	*	*	*	*	*	*	*	*	*	*	*
.	.	16a\LL	.	8ff\L	.	4F\	.	et	et	4f\	.	et	et	4a\	.	et	et	4cc\	.	et	et	4f/	4cc\	.	.	2aa\	.
.	.	16cc\	.	.	.	.	.	.	.	.	.	.	.	.	.	.	.	.	.	.	.	.	.	.	.	.	.
.	.	16a\	.	8cc\	.	.	.	.	.	.	.	.	.	.	.	.	.	.	.	.	.	.	.	.	.	.	.
.	.	16cc\	.	.	.	.	.	.	.	.	.	.	.	.	.	.	.	.	.	.	.	.	.	.	.	.	.
.	.	16a\	.	8aa\	.	4F\	.	in	in	4c\	.	in	in	4a\	.	in	in	4cc\	.	in	in	4r	4r	.	.	.	.
.	.	16cc\	.	.	.	.	.	.	.	.	.	.	.	.	.	.	.	.	.	.	.	.	.	.	.	.	.
.	.	16a\	.	8cc\J	.	.	.	.	.	.	.	.	.	.	.	.	.	.	.	.	.	.	.	.	.	.	.
.	.	16cc\JJ	.	.	.	.	.	.	.	.	.	.	.	.	.	.	.	.	.	.	.	.	.	.	.	.	.
*	*	*Xrep	*	*	*	*	*	*	*	*	*	*	*	*	*	*	*	*	*	*	*	*	*	*	*	*	*
!	!	!	!	!	!	!	!	!	!	!	!	!	!	!	!	!	!	!	!	!	!	!	!LO:LB:g=original	!	!	!	!
=19	=19	=19	=19	=19	=19	=19	=19	=19	=19	=19	=19	=19	=19	=19	=19	=19	=19	=19	=19	=19	=19	=19	=19	=19	=19	=19	=19
1ryy	.	16g\LL	.	8bb-\	.	4En\	.	Spi-	Spi-	4B-\	.	Spi-	Spi-	4g\	.	ſpi-	Spi-	4cc\	.	Spi-	Spi-	1cc	2cc\	1cc	.	2bb-\	.
.	.	16cc\	.	.	.	.	.	.	.	.	.	.	.	.	.	.	.	.	.	.	.	.	.	.	.	.	.
.	.	16g\	.	4bb-\	.	.	.	.	.	.	.	.	.	.	.	.	.	.	.	.	.	.	.	.	.	.	.
.	.	16cc\	.	.	.	.	.	.	.	.	.	.	.	.	.	.	.	.	.	.	.	.	.	.	.	.	.
.	.	16g\	.	.	.	8E\	.	-ri-	-ri-	8B-\	.	-ri-	-ri-	8g\	.	-ri-	-ri-	8cc\	.	-ri-	-ri-	.	.	.	.	.	.
.	.	16cc\	.	.	.	.	.	.	.	.	.	.	.	.	.	.	.	.	.	.	.	.	.	.	.	.	.
.	.	16g\	.	8bb-\	.	8E\	.	-tum	-tum	8B-\	.	-tum	-tum	8g\	.	-tum	-tum	8cc\	.	-tum	-tum	.	.	.	.	.	.
.	.	16cc\JJ	.	.	.	.	.	.	.	.	.	.	.	.	.	.	.	.	.	.	.	.	.	.	.	.	.
*	*	*rep	*	*	*	*	*	*	*	*	*	*	*	*	*	*	*	*	*	*	*	*	*	*	*	*	*
.	.	16g\LL	.	8een\ 8cc\	.	4E\	.	Sanc-	San-	4B-\	.	Sanc-	San-	4g\	.	ſanc-	San-	4cc\	.	ſanc-	San-	.	2cc\	.	.	2eeX\	.
.	.	16cc\	.	.	.	.	.	.	.	.	.	.	.	.	.	.	.	.	.	.	.	.	.	.	.	.	.
.	.	16g\	.	4ee\ 4cc\	.	.	.	.	.	.	.	.	.	.	.	.	.	.	.	.	.	.	.	.	.	.	.
.	.	16cc\	.	.	.	.	.	.	.	.	.	.	.	.	.	.	.	.	.	.	.	.	.	.	.	.	.
.	.	16g\	.	.	.	4E\	.	-tu(m)	-ctu(m),	4B-\	.	-tum	-ctum,	4g\	.	-tu(m)	-ctu(m),	4cc\	.	-tum	-ctum,	.	.	.	.	.	.
.	.	16cc\	.	.	.	.	.	.	.	.	.	.	.	.	.	.	.	.	.	.	.	.	.	.	.	.	.
.	.	16g\	.	8ee\ 8cc\	.	.	.	.	.	.	.	.	.	.	.	.	.	.	.	.	.	.	.	.	.	.	.
.	.	16cc\JJ	.	.	.	.	.	.	.	.	.	.	.	.	.	.	.	.	.	.	.	.	.	.	.	.	.
*	*	*Xrep	*	*	*	*	*	*	*	*	*	*	*	*	*	*	*	*	*	*	*	*	*	*	*	*	*
!	!	!	!	!	!	!	!	!	!	!LO:LB:g=original	!	!	!	!	!	!	!	!LO:LB:g=original	!	!	!	!	!	!	!	!	!
=20	=20	=20	=20	=20	=20	=20	=20	=20	=20	=20	=20	=20	=20	=20	=20	=20	=20	=20	=20	=20	=20	=20	=20	=20	=20	=20	=20
!!mixed beam:problem
!	!	!	!	!LO:TX:t=P:problem=mixed beam	!	!	!	!	!	!	!	!	!	!	!	!	!	!	!	!	!	!	!	!	!	!	!
1ryy	.	16a\LL	.	16ff\LL	.	4F\	.	Do-	Do-	4A\	.	Do-	Do-	4f\	.	Do-	Do-	8cc\	.	Do-	Do-	4f/	4cc\	1cc	.	2ff\	.
.	.	16cc\	.	16f/	.	.	.	.	.	.	.	.	.	.	.	.	.	.	.	.	.	.	.	.	.	.	.
.	.	16a\	.	16g/	.	.	.	.	.	.	.	.	.	.	.	.	.	4cc\	.	-mi-	-mi-	.	.	.	.	.	.
.	.	16cc\	.	16a/JJ	.	.	.	.	.	.	.	.	.	.	.	.	.	.	.	.	.	.	.	.	.	.	.
.	.	16a\	.	16b-\LL	.	8F\	.	-mi-	-mi-	8A\	.	-mi-	-mi-	8f\	.	-mi-	-mi-	.	.	.	.	8f/L	8cc\L	.	.	.	.
.	.	16cc\	.	16cc\	.	.	.	.	.	.	.	.	.	.	.	.	.	.	.	.	.	.	.	.	.	.	.
.	.	16a\	.	16dd\	.	8F\	.	-nu(m)	-nu(m)	8A\	.	-num	-num	8f\	.	-nu(m)	-nu(m)	8cc\	.	-nu(m)	-nu(m)	8f/J	8cc\J	.	.	.	.
.	.	16cc\JJ	.	16ee-\JJ	.	.	.	.	.	.	.	.	.	.	.	.	.	.	.	.	.	.	.	.	.	.	.
*	*	*rep	*	*	*	*	*	*	*	*	*	*	*	*	*	*	*	*	*	*	*	*	*	*	*	*	*
.	.	16a\LL	.	8ff\L	.	4F\	.	et	et	4A\	.	et	et	4f\	.	et	et	4cc\	.	et	et	4f/	4cc\	.	.	2aa\	.
.	.	16cc\	.	.	.	.	.	.	.	.	.	.	.	.	.	.	.	.	.	.	.	.	.	.	.	.	.
.	.	16a\	.	8cc\	.	.	.	.	.	.	.	.	.	.	.	.	.	.	.	.	.	.	.	.	.	.	.
.	.	16cc\	.	.	.	.	.	.	.	.	.	.	.	.	.	.	.	.	.	.	.	.	.	.	.	.	.
.	.	16a\	.	8aa\	.	4F\	.	vi-	vi-	4A\	.	vi-	vi-	4f\	.	vi-	vi-	4cc\	.	vi-	vi-	4r	4r	.	.	.	.
.	.	16cc\	.	.	.	.	.	.	.	.	.	.	.	.	.	.	.	.	.	.	.	.	.	.	.	.	.
.	.	16a\	.	8cc\J	.	.	.	.	.	.	.	.	.	.	.	.	.	.	.	.	.	.	.	.	.	.	.
.	.	16cc\JJ	.	.	.	.	.	.	.	.	.	.	.	.	.	.	.	.	.	.	.	.	.	.	.	.	.
*	*	*Xrep	*	*	*	*	*	*	*	*	*	*	*	*	*	*	*	*	*	*	*	*	*	*	*	*	*
!	!	!LO:LB:g=original	!	!LO:LB:g=original	!	!	!	!	!	!	!	!	!	!	!	!	!	!	!	!	!	!	!	!	!	!	!
=21	=21	=21	=21	=21	=21	=21	=21	=21	=21	=21	=21	=21	=21	=21	=21	=21	=21	=21	=21	=21	=21	=21	=21	=21	=21	=21	=21
1ryy	.	16g\LL	.	8bb-\ 8cc\	.	4En\	.	-vi-	-vi-	4B-\	.	-vi-	-vi-	4g\	.	-vi-	-vi-	4cc\	.	-vi-	-vi-	1cc	2cc\	1cc	.	2bb-\	.
.	.	16cc\	.	.	.	.	.	.	.	.	.	.	.	.	.	.	.	.	.	.	.	.	.	.	.	.	.
.	.	16g\	.	4bb-\ 4cc\	.	.	.	.	.	.	.	.	.	.	.	.	.	.	.	.	.	.	.	.	.	.	.
.	.	16cc\	.	.	.	.	.	.	.	.	.	.	.	.	.	.	.	.	.	.	.	.	.	.	.	.	.
.	.	16g\	.	.	.	8E\	.	-fi-	-fi-	4B-\	.	-fi-	-fi-	4g\	.	-fi-	-fi-	4cc\	.	-fi-	-fi-	.	.	.	.	.	.
.	.	16cc\	.	.	.	.	.	.	.	.	.	.	.	.	.	.	.	.	.	.	.	.	.	.	.	.	.
.	.	16g\	.	8bb-\ 8cc\	.	8E\	.	-can-	-can-	.	.	.	.	.	.	.	.	.	.	.	.	.	.	.	.	.	.
.	.	16cc\JJ	.	.	.	.	.	.	.	.	.	.	.	.	.	.	.	.	.	.	.	.	.	.	.	.	.
*	*	*rep	*	*	*	*	*	*	*	*	*	*	*	*	*	*	*	*	*	*	*	*	*	*	*	*	*
.	.	16g\LL	.	8een\ 8cc\	.	4E\	.	.	.	4B-\	.	-can-	-can-	4g\	.	-can-	-can-	4cc\	.	-can-	-can-	.	2cc\	.	.	2eeX\	.
.	.	16cc\	.	.	.	.	.	.	.	.	.	.	.	.	.	.	.	.	.	.	.	.	.	.	.	.	.
.	.	16g\	.	4ee\ 4cc\	.	.	.	.	.	.	.	.	.	.	.	.	.	.	.	.	.	.	.	.	.	.	.
.	.	16cc\	.	.	.	.	.	.	.	.	.	.	.	.	.	.	.	.	.	.	.	.	.	.	.	.	.
.	.	16g\	.	.	.	4E\	.	-tem	-tem,	4B-\	.	-tem	-tem,	4g\	.	-te(m)	-te(m),	4cc\	.	-tem	-tem,	.	.	.	.	.	.
.	.	16cc\	.	.	.	.	.	.	.	.	.	.	.	.	.	.	.	.	.	.	.	.	.	.	.	.	.
.	.	16g\	.	8ee\ 8cc\	.	.	.	.	.	.	.	.	.	.	.	.	.	.	.	.	.	.	.	.	.	.	.
.	.	16cc\JJ	.	.	.	.	.	.	.	.	.	.	.	.	.	.	.	.	.	.	.	.	.	.	.	.	.
*	*	*Xrep	*	*	*	*	*	*	*	*	*	*	*	*	*	*	*	*	*	*	*	*	*	*	*	*	*
!	!	!	!	!	!	!	!	!	!	!	!	!	!	!	!	!	!	!	!	!	!	!	!	!	!	!LO:LB:g=original	!
=22	=22	=22	=22	=22	=22	=22	=22	=22	=22	=22	=22	=22	=22	=22	=22	=22	=22	=22	=22	=22	=22	=22	=22	=22	=22	=22	=22
!	!	!	!	!LO:MO:mod=*tremolo:null	!	!	!	!	!	!	!	!	!	!	!	!	!	!	!	!	!	!	!	!	!	!	!
*	*	*	*	*null	*	*	*	*	*	*	*	*	*	*	*	*	*	*	*	*	*	*	*	*	*	*	*
1ryy	.	16a/LL 16f/	.	16ff\LL	.	4F\	.	Qui	qui	4A\	.	qui	qui	4f\	.	qui	qui	4cc\	.	qui	qui	4f/	4cc\	4cc\	.	1ff	.
.	.	16a/ 16f/	.	16ff\	.	.	.	.	.	.	.	.	.	.	.	.	.	.	.	.	.	.	.	.	.	.	.
.	.	16a/ 16f/	.	16ff\	.	.	.	.	.	.	.	.	.	.	.	.	.	.	.	.	.	.	.	.	.	.	.
.	.	16a/JJ 16f/	.	16ff\JJ	.	.	.	.	.	.	.	.	.	.	.	.	.	.	.	.	.	.	.	.	.	.	.
.	.	16f/LL	.	16ee-X\LL	.	4c\	.	ex	ex	4A\	.	ex	ex	4f\	.	ex	ex	4ee-X\	.	ex	ex	4r	4r	4ee-\	.	.	.
.	.	16f/	.	16ee-\	.	.	.	.	.	.	.	.	.	.	.	.	.	.	.	.	.	.	.	.	.	.	.
.	.	16f/	.	16ee-\	.	.	.	.	.	.	.	.	.	.	.	.	.	.	.	.	.	.	.	.	.	.	.
.	.	16f/	.	16ee-\JJ	.	.	.	.	.	.	.	.	.	.	.	.	.	.	.	.	.	.	.	.	.	.	.
.	.	16f/	.	16dd\LL	.	4B-\	.	Pa-	Pa-	4B-\	.	Pa-	Pa-	4f\	.	Pa-	Pa-	4dd\	.	Pa-	Pa-	2r	2r	4dd\	.	.	.
.	.	16f/	.	16dd\	.	.	.	.	.	.	.	.	.	.	.	.	.	.	.	.	.	.	.	.	.	.	.
.	.	16f/	.	16dd\	.	.	.	.	.	.	.	.	.	.	.	.	.	.	.	.	.	.	.	.	.	.	.
.	.	16f/JJ	.	16dd\JJ	.	.	.	.	.	.	.	.	.	.	.	.	.	.	.	.	.	.	.	.	.	.	.
!	!	!	!	!	!	!	!	!	!	!LO:SIC:o=4c\:v	!	!	!	!	!	!	!	!LO:SIC:o=4cc\:v	!	!	!	!	!	!LO:SIC:o=4cc\:v	!	!	!
.	.	16f/LL	.	16cc#X\LL	.	4A\	.	-tre	-tre	4c#\	.	-tre	-tre	4f\	.	-tre	-tre	4cc#\	.	-tre	-tre	.	.	4cc#\	.	.	.
.	.	16f/	.	16cc#\	.	.	.	.	.	.	.	.	.	.	.	.	.	.	.	.	.	.	.	.	.	.	.
.	.	16f/	.	16cc#\	.	.	.	.	.	.	.	.	.	.	.	.	.	.	.	.	.	.	.	.	.	.	.
.	.	16f/JJ	.	16cc#\JJ	.	.	.	.	.	.	.	.	.	.	.	.	.	.	.	.	.	.	.	.	.	.	.
!	!	!	!	!	!	!LO:LB:g=original	!	!	!	!	!	!	!	!LO:LB:g=original	!	!	!	!	!	!	!	!	!	!LO:LB:g=original	!	!	!
=23	=23	=23	=23	=23	=23	=23	=23	=23	=23	=23	=23	=23	=23	=23	=23	=23	=23	=23	=23	=23	=23	=23	=23	=23	=23	=23	=23
1ryy	.	16f/LL	.	16dd\LL	.	8B-\	.	et	et	8d\	.	Fi-	et	8f\	.	et	et	8dd\	.	fi-	et	1r	1r	4dd\	.	4ff\	.
.	.	16f/	.	16dd\	.	.	.	.	.	.	.	.	.	.	.	.	.	.	.	.	.	.	.	.	.	.	.
.	.	16f/	.	16dd\	.	8B-\	.	fi-	Fi-	8B-\	.	-li-	Fi-	8f\	.	fi-	Fi-	8dd\	.	-li-	Fi-	.	.	.	.	.	.
.	.	16f/	.	16dd\JJ	.	.	.	.	.	.	.	.	.	.	.	.	.	.	.	.	.	.	.	.	.	.	.
.	.	16f/	.	16bb-\LL	.	4d\	.	-lio-	-li-	4B-\	.	-o-	-li-	4b-\	.	-lio-	-li-	4ff\	.	-o-	-li-	.	.	4r	.	4bb-\	.
.	.	16f/	.	16bb-\	.	.	.	.	.	.	.	.	.	.	.	.	.	.	.	.	.	.	.	.	.	.	.
.	.	16f/	.	16bb-\	.	.	.	.	.	.	.	.	.	.	.	.	.	.	.	.	.	.	.	.	.	.	.
.	.	16f/JJ	.	16bb-\JJ	.	.	.	.	.	.	.	.	.	.	.	.	.	.	.	.	.	.	.	.	.	.	.
.	.	16f/LL	.	16aa\LL	.	4c\	.	-que	-o	4c\	.	-que	-o	4a\	.	-que	-o	4ff\	.	-que	-o	.	.	2ff\	.	4aa\	.
.	.	16f/	.	16aa\	.	.	.	.	.	.	.	.	.	.	.	.	.	.	.	.	.	.	.	.	.	.	.
.	.	16f/	.	16aa\	.	.	.	.	.	.	.	.	.	.	.	.	.	.	.	.	.	.	.	.	.	.	.
.	.	16f/	.	16aa\JJ	.	.	.	.	.	.	.	.	.	.	.	.	.	.	.	.	.	.	.	.	.	.	.
.	.	16f/	.	16gg\LL	.	4B-\	.	pro-	pro-	4d\	.	pro-	pro-	4g\	.	pro-	pro-	4ff\	.	pro-	pro-	.	.	.	.	4gg\	.
.	.	16f/	.	16gg\	.	.	.	.	.	.	.	.	.	.	.	.	.	.	.	.	.	.	.	.	.	.	.
.	.	16f/	.	16gg\	.	.	.	.	.	.	.	.	.	.	.	.	.	.	.	.	.	.	.	.	.	.	.
.	.	16f/JJ	.	16gg\JJ	.	.	.	.	.	.	.	.	.	.	.	.	.	.	.	.	.	.	.	.	.	.	.
!	!	!	!	!LO:LB:g=original	!	!	!	!	!	!	!	!	!	!	!	!	!	!	!	!	!	!	!	!	!	!	!
=24	=24	=24	=24	=24	=24	=24	=24	=24	=24	=24	=24	=24	=24	=24	=24	=24	=24	=24	=24	=24	=24	=24	=24	=24	=24	=24	=24
*	*	*	*	*	*	*	*	*	*	*	*	*	*	*	*	*	*	*	*	*	*	*2\right	*	*	*	*	*
1ryy	.	16a/LL	.	16ff\LL	.	2c\	.	-ce-	-ce-	2c\	.	-ce-	-ce-	2a\	.	-ce-	-ce-	2.ff\	.	-ce-	-ce-	2cc\	2cc\	2.ff\	.	2aa\	.
.	.	16a/	.	16ff\	.	.	.	.	.	.	.	.	.	.	.	.	.	.	.	.	.	.	.	.	.	.	.
.	.	16a/	.	16ff\	.	.	.	.	.	.	.	.	.	.	.	.	.	.	.	.	.	.	.	.	.	.	.
.	.	16a/	.	16ff\JJ	.	.	.	.	.	.	.	.	.	.	.	.	.	.	.	.	.	.	.	.	.	.	.
.	.	16a/	.	16ff\LL	.	.	.	.	.	.	.	.	.	.	.	.	.	.	.	.	.	.	.	.	.	.	.
.	.	16a/	.	16ff\	.	.	.	.	.	.	.	.	.	.	.	.	.	.	.	.	.	.	.	.	.	.	.
.	.	16a/	.	16ff\	.	.	.	.	.	.	.	.	.	.	.	.	.	.	.	.	.	.	.	.	.	.	.
.	.	16a/JJ	.	16ff\JJ	.	.	.	.	.	.	.	.	.	.	.	.	.	.	.	.	.	.	.	.	.	.	.
.	.	16a/LL	.	16dd\LL	.	2C/	.	-dit	-dit,	2c\	.	-dit	-dit,	2g\	.	-dit	-dit,	.	.	.	.	2cc\	2cc\	.	.	2gg\	.
.	.	16a/	.	16ff\	.	.	.	.	.	.	.	.	.	.	.	.	.	.	.	.	.	.	.	.	.	.	.
.	.	16a/	.	16ff\	.	.	.	.	.	.	.	.	.	.	.	.	.	.	.	.	.	.	.	.	.	.	.
.	.	16a/	.	16ff\JJ	.	.	.	.	.	.	.	.	.	.	.	.	.	.	.	.	.	.	.	.	.	.	.
!	!	!	!	!	!	!	!	!	!	!	!	!	!	!	!	!	!	!	!	!	!	!	!	!LO:SIC:o=4ee-\:v	!	!	!
.	.	16a/	.	16een\LL	.	.	.	.	.	.	.	.	.	.	.	.	.	4een\	.	-dit	-dit,	.	.	4een\	.	.	.
.	.	16a/	.	16ee\	.	.	.	.	.	.	.	.	.	.	.	.	.	.	.	.	.	.	.	.	.	.	.
.	.	16a/	.	16ee\	.	.	.	.	.	.	.	.	.	.	.	.	.	.	.	.	.	.	.	.	.	.	.
.	.	16a/JJ	.	16ee\JJ	.	.	.	.	.	.	.	.	.	.	.	.	.	.	.	.	.	.	.	.	.	.	.
=25	=25	=25	=25	=25	=25	=25	=25	=25	=25	=25	=25	=25	=25	=25	=25	=25	=25	=25	=25	=25	=25	=25	=25	=25	=25	=25	=25
1ryy	.	16a/LL	.	16ff\LL	.	4F\	.	Qui	qui	4c\	.	qui	qui	4a\	.	qui	qui	4ff\	.	qui	qui	4f/	4cc\	4ff\	.	4ff\	.
.	.	16a/	.	16ff\	.	.	.	.	.	.	.	.	.	.	.	.	.	.	.	.	.	.	.	.	.	.	.
.	.	16a/	.	16ff\	.	.	.	.	.	.	.	.	.	.	.	.	.	.	.	.	.	.	.	.	.	.	.
.	.	16a/JJ	.	16ff\JJ	.	.	.	.	.	.	.	.	.	.	.	.	.	.	.	.	.	.	.	.	.	.	.
!	!	!	!	!	!	!	!	!	!	!LO:SIC:o=4e-\:v	!	!	!	!	!	!	!	!LO:SIC:o=4ee-\:v	!	!	!	!	!	!	!	!	!
.	.	16g/LL	.	16een\LL	.	4G\	.	lo-	lo-	4en\	.	cu(m)	cu(m)	4g\	.	cu(m)	cu(m)	4een\	.	cu(m)	cu(m)	4r	4r	4b-\	.	4eeX\	.
.	.	16g/	.	16ee\	.	.	.	.	.	.	.	.	.	.	.	.	.	.	.	.	.	.	.	.	.	.	.
.	.	16g/	.	16ee\	.	.	.	.	.	.	.	.	.	.	.	.	.	.	.	.	.	.	.	.	.	.	.
.	.	16g/JJ	.	16ee\JJ	.	.	.	.	.	.	.	.	.	.	.	.	.	.	.	.	.	.	.	.	.	.	.
.	.	16f/LL	.	16dd\LL	.	4A\	.	-cu-	-cu-	4A\	.	Pa-	Pa-	4f\	.	Pa-	Pa-	4dd\	.	Pa-	Pa-	2r	2r	2a\	.	4dd\	.
.	.	16f/	.	16dd\	.	.	.	.	.	.	.	.	.	.	.	.	.	.	.	.	.	.	.	.	.	.	.
.	.	16f/	.	16dd\	.	.	.	.	.	.	.	.	.	.	.	.	.	.	.	.	.	.	.	.	.	.	.
.	.	16f/JJ	.	16dd\JJ	.	.	.	.	.	.	.	.	.	.	.	.	.	.	.	.	.	.	.	.	.	.	.
*	*	*	*	*tremolo	*	*	*	*	*	*	*	*	*	*	*	*	*	*	*	*	*	*	*	*	*	*	*
.	.	16en/LL	.	16cc#X\LL	.	4A\	.	-tus	-tus	8A\	.	-tre	-tre	8en\	.	-tre	-tre	8cc#X\	.	-tre	-tre	.	.	.	.	4cc-X\	.
.	.	16e/	.	16cc#\	.	.	.	.	.	.	.	.	.	.	.	.	.	.	.	.	.	.	.	.	.	.	.
.	.	16e/	.	16cc#\	.	.	.	.	.	8A\	.	et	et	8e\	.	et	et	8cc#\	.	et	et	.	.	.	.	.	.
.	.	16e/JJ	.	16cc#\JJ	.	.	.	.	.	.	.	.	.	.	.	.	.	.	.	.	.	.	.	.	.	.	.
*	*	*	*	*Xtremolo	*	*	*	*	*	*	*	*	*	*	*	*	*	*	*	*	*	*	*	*	*	*	*
!	!	!	!	!	!	!	!	!	!	!LO:LB:g=original	!	!	!	!	!	!	!	!	!	!	!	!	!	!	!	!	!
=26	=26	=26	=26	=26	=26	=26	=26	=26	=26	=26	=26	=26	=26	=26	=26	=26	=26	=26	=26	=26	=26	=26	=26	=26	=26	=26	=26
!	!	!	!	!LO:MO:mod=*tremolo:null	!	!	!	!	!	!	!	!	!	!	!	!	!	!	!	!	!	!	!	!	!	!	!
*	*	*	*	*null	*	*	*	*	*	*	*	*	*	*	*	*	*	*	*	*	*	*	*	*	*	*	*
1ryy	.	16f/LL	.	16dd\LL	.	4D\	.	est	est	4A\	.	Fi-	Fi-	4f\	.	Fi-	Fi-	4dd\	.	fi-	Fi-	0r	0r	1dd	.	4dd\	.
.	.	16f/	.	16dd\	.	.	.	.	.	.	.	.	.	.	.	.	.	.	.	.	.	.	.	.	.	.	.
.	.	16f/	.	16dd\	.	.	.	.	.	.	.	.	.	.	.	.	.	.	.	.	.	.	.	.	.	.	.
.	.	16f/JJ	.	16dd\JJ	.	.	.	.	.	.	.	.	.	.	.	.	.	.	.	.	.	.	.	.	.	.	.
.	.	16dd\LL	.	16ccc\LL	.	4F#X\	.	per	per	8c\	.	-li-	-li-	8a\	.	-li-	-li-	8dd\	.	-li-	-li-	.	.	.	.	4ccc\	.
.	.	16dd\	.	16ccc\	.	.	.	.	.	.	.	.	.	.	.	.	.	.	.	.	.	.	.	.	.	.	.
.	.	16dd\	.	16ccc\	.	.	.	.	.	8c\	.	-o	-o	8a\	.	-o	-o	8dd\	.	-o	-o	.	.	.	.	.	.
.	.	16dd\	.	16ccc\JJ	.	.	.	.	.	.	.	.	.	.	.	.	.	.	.	.	.	.	.	.	.	.	.
!	!	!	!	!	!	!	!	!	!	!	!	!	!	!	!	!	!	!LO:LB:g=original	!	!	!	!	!	!	!	!	!
.	.	16dd\	.	16bb-X\LL	.	(>4G\	.	pro-	Pro-	4B-\	.	si-	si-	4g\	.	Si-	si-	4dd\	.	Si-	si-	.	.	.	.	4bb-\	.
.	.	16dd\	.	16bb-\	.	.	.	.	.	.	.	.	.	.	.	.	.	.	.	.	.	.	.	.	.	.	.
.	.	16dd\	.	16bb-\	.	.	.	.	.	.	.	.	.	.	.	.	.	.	.	.	.	.	.	.	.	.	.
.	.	16dd\JJ	.	16bb-\JJ	.	.	.	.	.	.	.	.	.	.	.	.	.	.	.	.	.	.	.	.	.	.	.
!	!	!	!	!LO:LB:g=original	!	!	!	!	!	!	!	!	!	!	!	!	!	!	!	!	!	!	!	!	!	!	!
.	.	16cc\LL	.	16aa\LL	.	4D\)	.	.	.	4A\	.	-mul	-mul	4a\	.	-mul	-mul	4dd\	.	-mul	-mul	.	.	.	.	4aa\	.
.	.	16cc\	.	16aa\	.	.	.	.	.	.	.	.	.	.	.	.	.	.	.	.	.	.	.	.	.	.	.
.	.	16cc\	.	16aa\	.	.	.	.	.	.	.	.	.	.	.	.	.	.	.	.	.	.	.	.	.	.	.
.	.	16cc\JJ	.	16aa\JJ	.	.	.	.	.	.	.	.	.	.	.	.	.	.	.	.	.	.	.	.	.	.	.
=27	=27	=27	=27	=27	=27	=27	=27	=27	=27	=27	=27	=27	=27	=27	=27	=27	=27	=27	=27	=27	=27	=27-	=27-	=27	=27	=27	=27
1ryy	.	16cc\LL	.	16gg\LL	.	4Gn\	.	.	.	4G\	.	a-	a-	4g\	.	a-	a-	4dd\	.	a-	a-	.	.	4dd\	.	4ff\	.
.	.	16cc\	.	16gg\	.	.	.	.	.	.	.	.	.	.	.	.	.	.	.	.	.	.	.	.	.	.	.
.	.	16cc\	.	16gg\	.	.	.	.	.	.	.	.	.	.	.	.	.	.	.	.	.	.	.	.	.	.	.
.	.	16cc\JJ	.	16gg\JJ	.	.	.	.	.	.	.	.	.	.	.	.	.	.	.	.	.	.	.	.	.	.	.
.	.	16g/LL	.	16ff\LL	.	4Bn\	.	.	.	4d\	.	-do-	-do-	4g\	.	-do-	-do-	4ff\	.	-do-	-do-	.	.	4dd\	.	4eeX\	.
.	.	16g/	.	16ff\	.	.	.	.	.	.	.	.	.	.	.	.	.	.	.	.	.	.	.	.	.	.	.
.	.	16g/	.	16ff\	.	.	.	.	.	.	.	.	.	.	.	.	.	.	.	.	.	.	.	.	.	.	.
.	.	16g/	.	16ff\JJ	.	.	.	.	.	.	.	.	.	.	.	.	.	.	.	.	.	.	.	.	.	.	.
.	.	16g/	.	16een\LL	.	4c\	.	.	.	4c\	.	-ra-	-ra-	4g\	.	-ra-	-ra-	4een\	.	-ra-	-ra-	.	.	4ee-\	.	4dd\	.
.	.	16g/	.	16ee\	.	.	.	.	.	.	.	.	.	.	.	.	.	.	.	.	.	.	.	.	.	.	.
.	.	16g/	.	16ee\	.	.	.	.	.	.	.	.	.	.	.	.	.	.	.	.	.	.	.	.	.	.	.
.	.	16g/JJ	.	16ee\JJ	.	.	.	.	.	.	.	.	.	.	.	.	.	.	.	.	.	.	.	.	.	.	.
.	.	16f/LL	.	16dd\LL	.	4G\	.	.	.	8Bn\	.	-tur	-tur	8g\	.	-tur	-tur	8dd\	.	-tur	-tur	.	.	4dd\	.	4cc\	.
.	.	16f/	.	16dd\	.	.	.	.	.	.	.	.	.	.	.	.	.	.	.	.	.	.	.	.	.	.	.
.	.	16f/	.	16dd\	.	.	.	.	.	8B\	.	et	et	8g\	.	et	et	8dd\	.	et	et	.	.	.	.	.	.
.	.	16f/JJ	.	16dd\JJ	.	.	.	.	.	.	.	.	.	.	.	.	.	.	.	.	.	.	.	.	.	.	.
!	!	!	!	!	!	!	!	!	!	!	!	!	!	!LO:LB:g=original	!	!	!	!	!	!	!	!	!	!	!	!	!
=28	=28	=28	=28	=28	=28	=28	=28	=28	=28	=28	=28	=28	=28	=28	=28	=28	=28	=28	=28	=28	=28	=28-	=28-	=28	=28	=28	=28
1ryy	.	16en/LL	.	16cc\LL	.	4c\	.	.	.	4c\	.	Con-	con-	4g\	.	con-	con-	2cc\	.	Con-	con-	1r	1r	4cc\	.	4cc\	.
.	.	16e/	.	16cc\	.	.	.	.	.	.	.	.	.	.	.	.	.	.	.	.	.	.	.	.	.	.	.
.	.	16e/	.	16cc\	.	.	.	.	.	.	.	.	.	.	.	.	.	.	.	.	.	.	.	.	.	.	.
.	.	16e/JJ	.	16cc\JJ	.	.	.	.	.	.	.	.	.	.	.	.	.	.	.	.	.	.	.	.	.	.	.
!	!	!	!	!LO:MO:mod=*Xtremolo:null	!	!	!	!	!	!	!	!	!	!	!	!	!	!	!	!	!	!	!	!	!	!	!
*	*	*	*	*null	*	*	*	*	*	*	*	*	*	*	*	*	*	*	*	*	*	*	*	*	*	*	*
.	.	16cc\LL	.	16cc\LL	.	4En\	.	.	.	4B-X\	.	-glo-	-glo-	4g\	.	-glo-	-glo-	.	.	.	.	.	.	2cc\	.	4bb-\	.
.	.	16cc\	.	16cc\	.	.	.	.	.	.	.	.	.	.	.	.	.	.	.	.	.	.	.	.	.	.	.
.	.	16cc\	.	16bb-\	.	.	.	.	.	.	.	.	.	.	.	.	.	.	.	.	.	.	.	.	.	.	.
.	.	16cc\	.	16bb-\JJ	.	.	.	.	.	.	.	.	.	.	.	.	.	.	.	.	.	.	.	.	.	.	.
!	!	!	!	!LO:MO:mod=*tremolo:null	!	!	!	!	!	!	!	!	!	!	!	!	!	!	!	!	!	!	!	!	!	!	!
*	*	*	*	*null	*	*	*	*	*	*	*	*	*	*	*	*	*	*	*	*	*	*	*	*	*	*	*
.	.	16cc\	.	16aa\LL	.	4F\	.	.	.	4A\	.	-ri-	-ri-	4a\	.	-ri-	-ri-	2cc\	.	-glo-	-glo-	.	.	.	.	4aa\	.
.	.	16cc\	.	16aa\	.	.	.	.	.	.	.	.	.	.	.	.	.	.	.	.	.	.	.	.	.	.	.
.	.	16cc\	.	16aa\	.	.	.	.	.	.	.	.	.	.	.	.	.	.	.	.	.	.	.	.	.	.	.
.	.	16cc\JJ	.	16aa\JJ	.	.	.	.	.	.	.	.	.	.	.	.	.	.	.	.	.	.	.	.	.	.	.
.	.	16b-\LL	.	16gg\LL	.	4B-\	.	.	.	4en\	.	-fi-	-fi-	4g\	.	-fi-	-fi-	.	.	.	.	.	.	4cc\	.	4gg\	.
.	.	16b-\	.	16gg\	.	.	.	.	.	.	.	.	.	.	.	.	.	.	.	.	.	.	.	.	.	.	.
.	.	16b-\	.	16gg\	.	.	.	.	.	.	.	.	.	.	.	.	.	.	.	.	.	.	.	.	.	.	.
.	.	16b-\JJ	.	16gg\JJ	.	.	.	.	.	.	.	.	.	.	.	.	.	.	.	.	.	.	.	.	.	.	.
!	!	!	!	!	!	!LO:LB:g=original	!	!	!	!	!	!	!	!	!	!	!	!	!	!	!	!	!	!	!	!	!
=29	=29	=29	=29	=29	=29	=29	=29	=29	=29	=29	=29	=29	=29	=29	=29	=29	=29	=29	=29	=29	=29	=29	=29	=29	=29	=29	=29
!	!	!	!	!	!	!	!	!	!	!	!	!	!	!LO:SIC:v:s:t=[1f	!	!	!	!	!	!	!	!	!	!	!	!	!
1ryy	.	16a/LL	.	16ff\LL	.	4A\	.	.	.	4f\	.	-ca-	-ca-	1f	.	-ca-	-ca-	4cc\	.	-ri-	-ri-	4f/	4cc\	4cc\	.	4ff\	.
.	.	16a/	.	16ff\	.	.	.	.	.	.	.	.	.	.	.	.	.	.	.	.	.	.	.	.	.	.	.
.	.	16a/	.	16ff\	.	.	.	.	.	.	.	.	.	.	.	.	.	.	.	.	.	.	.	.	.	.	.
.	.	16a/JJ	.	16ff\JJ	.	.	.	.	.	.	.	.	.	.	.	.	.	.	.	.	.	.	.	.	.	.	.
.	.	16f/LL	.	16ee-X\LL	.	4c\	.	.	.	4A\	.	.	.	.	.	.	.	4ee-X\	.	-fi-	-fi-	4cc\	4ee-\	4ee-\	.	4ee-X\	.
.	.	16f/	.	16ee-\	.	.	.	.	.	.	.	.	.	.	.	.	.	.	.	.	.	.	.	.	.	.	.
.	.	16f/	.	16ee-\	.	.	.	.	.	.	.	.	.	.	.	.	.	.	.	.	.	.	.	.	.	.	.
.	.	16f/	.	16ee-\JJ	.	.	.	.	.	.	.	.	.	.	.	.	.	.	.	.	.	.	.	.	.	.	.
!	!	!	!	!LO:LB:g=original	!	!	!	!	!	!	!	!	!	!	!	!	!	!	!	!	!	!	!	!	!	!	!
.	.	16f/	.	16dd\LL	.	4B-\	.	.	.	4B-\	.	.	.	.	.	.	.	4dd\	.	-ca-	-ca-	4b-\	4dd\	4dd\	.	4dd\	.
.	.	16f/	.	16dd\	.	.	.	.	.	.	.	.	.	.	.	.	.	.	.	.	.	.	.	.	.	.	.
.	.	16f/	.	16dd\	.	.	.	.	.	.	.	.	.	.	.	.	.	.	.	.	.	.	.	.	.	.	.
.	.	16f/JJ	.	16dd\JJ	.	.	.	.	.	.	.	.	.	.	.	.	.	.	.	.	.	.	.	.	.	.	.
.	.	16f/LL	.	16cc\LL	.	4A\	.	.	.	4c\	.	.	.	.	.	.	.	4cc\	.	.	.	4f/	4cc\	4cc\	.	4cc\	.
.	.	16f/	.	16cc\	.	.	.	.	.	.	.	.	.	.	.	.	.	.	.	.	.	.	.	.	.	.	.
.	.	16f/	.	16cc\	.	.	.	.	.	.	.	.	.	.	.	.	.	.	.	.	.	.	.	.	.	.	.
.	.	16f/JJ	.	16cc\JJ	.	.	.	.	.	.	.	.	.	.	.	.	.	.	.	.	.	.	.	.	.	.	.
!	!	!LO:LB:g=original	!	!	!	!	!	!	!	!	!	!	!	!	!	!	!	!	!	!	!	!	!	!	!	!	!
=30	=30	=30	=30	=30	=30	=30	=30	=30	=30	=30	=30	=30	=30	=30	=30	=30	=30	=30	=30	=30	=30	=30	=30	=30	=30	=30	=30
!	!	!	!	!	!	!	!	!	!	!	!	!	!	!LO:SIC:v:s:t=4f\]	!	!	!	!	!	!	!	!	!	!	!	!	!
1ryy	.	16f/LL	.	16dd\LL	.	4B-\	.	.	.	4B-\	.	.	.	4f\	.	.	.	4dd\	.	.	.	4b-\	4dd\	4dd\	.	4dd\	.
.	.	16f/	.	16dd\	.	.	.	.	.	.	.	.	.	.	.	.	.	.	.	.	.	.	.	.	.	.	.
.	.	16f/	.	16dd\	.	.	.	.	.	.	.	.	.	.	.	.	.	.	.	.	.	.	.	.	.	.	.
.	.	16f/JJ	.	16dd\JJ	.	.	.	.	.	.	.	.	.	.	.	.	.	.	.	.	.	.	.	.	.	.	.
.	.	16b-\LL	.	16een\LL	.	4G\	.	-phe-	-phe-	4c\	.	.	.	4b-\	.	.	.	4een\	.	.	.	4cc\	4cc\	4b-\	.	4eeX\	.
!	!	!	!	!LO:MO:mod=*Xtremolo:null	!	!	!	!	!	!	!	!	!	!	!	!	!	!	!	!	!	!	!	!	!	!	!
*	*	*	*	*null	*	*	*	*	*	*	*	*	*	*	*	*	*	*	*	*	*	*	*	*	*	*	*
.	.	16b-\	.	16ee\	.	.	.	.	.	.	.	.	.	.	.	.	.	.	.	.	.	.	.	.	.	.	.
.	.	16b-\	.	16ee\	.	.	.	.	.	.	.	.	.	.	.	.	.	.	.	.	.	.	.	.	.	.	.
.	.	16b-\JJ	.	16ee\JJ	.	.	.	.	.	.	.	.	.	.	.	.	.	.	.	.	.	.	.	.	.	.	.
*	*	*Xtremolo	*	*	*	*	*	*	*	*	*	*	*	*	*	*	*	*	*	*	*	*	*	*	*	*	*
.	.	4a/	.	4ff\	.	4F\	.	-tas	-tas.	4c\	.	-tur	-tur.	4a\	.	-tur	-tur.	4ff\	.	-tur	-tur.	4f/	4cc\	4a\	.	4ff\	.
!	!	!	!	!	!	!	!	!	!	!	!	!	!	!	!	!	!	!	!	!	!	!LO:MO:mod=!null:null	!	!	!	!	!
!	!	!	!	!	!	!	!	!	!	!	!	!	!	!	!	!	!	!	!	!	!	!LO:TX:b:i:t=V&colon; S&colon;	!	!	!	!	!
.	.	4r	.	4r	.	4r	.	.	.	4r	.	.	.	4r	.	.	.	4r	.	.	.	4r	4r	4r	.	4r	.
!	!	!	!	!	!	!	!	!	!	!	!	!	!	!	!	!	!	!	!	!	!	!LO:PB:g=original	!	!	!	!LO:LB:g=original	!
=31	=31	=31	=31	=31	=31	=31	=31	=31	=31	=31	=31	=31	=31	=31	=31	=31	=31	=31	=31	=31	=31	=31	=31	=31	=31	=31	=31
!	!	!	!	!	!	!	!	!	!	!	!	!	!	!	!	!	!	!LO:MO:mod=!null:null	!	!	!	!	!	!	!	!	!
!	!	!	!LO:DY:a:t=p.	!	!LO:DY:a:t=p.	!	!	!	!	!	!	!	!	!	!	!	!	!LO:TX:a:t=25	!	!	!	!LO:TX:a:i:t=Solo	!LO:TX:a:i:t=Solo	!	!	!LO:TX:a:i:t=Solo	!
!	!	!	!	!	!	!	!	!	!	!	!	!	!	!	!	!	!	!	!	!	!	!	!	!LO:MO:mod=!LO&colon;TX&colon;a&colon;i&colon;t=Solo	!	!	!
!	!	!	!	!	!	!	!	!	!	!	!	!	!	!	!	!	!	!	!	!	!	!	!	!null	!	!	!
1ryy	.	4B-/	p	4B-/	p	00r	.	.	.	00r	.	.	.	00r	.	.	.	1r	.	.	.	4d/	4b-\	4b-\	.	4b-\	.
.	.	4B-/	.	4B-/	.	.	.	.	.	.	.	.	.	.	.	.	.	.	.	.	.	2d/	2b-\	2b-\	.	2b-\	.
.	.	4d/	.	4d/	.	.	.	.	.	.	.	.	.	.	.	.	.	.	.	.	.	.	.	.	.	.	.
.	.	4f/	.	4f/	.	.	.	.	.	.	.	.	.	.	.	.	.	.	.	.	.	4f/	4cc\	4a\	.	4cc\	.
!	!	!	!	!	!	!	!	!	!	!	!	!	!	!	!	!	!	!	!	!	!	!	!	!LO:LB:g=original	!	!	!
=32	=32	=32	=32	=32	=32	=32-	=32	=32	=32	=32-	=32	=32	=32	=32-	=32	=32	=32	=32-	=32	=32	=32	=32	=32	=32	=32	=32	=32
1ryy	.	4b-\	.	4b-\	.	.	.	.	.	.	.	.	.	.	.	.	.	1r	.	.	.	4b-\	4dd\	4b-\	.	4dd\	.
.	.	4r	.	4r	.	.	.	.	.	.	.	.	.	.	.	.	.	.	.	.	.	4cc\	4ee-\	4cc\	.	4ee-\	.
.	.	2r	.	2r	.	.	.	.	.	.	.	.	.	.	.	.	.	.	.	.	.	4dd\	4ff\	4dd\	.	4ff\	.
.	.	.	.	.	.	.	.	.	.	.	.	.	.	.	.	.	.	.	.	.	.	4r	4r	4r	.	4r	.
=33	=33	=33	=33	=33	=33	=33-	=33	=33	=33	=33-	=33	=33	=33	=33-	=33	=33	=33	=33-	=33	=33	=33	=33	=33	=33	=33	=33	=33
!	!	!LO:TX:t=P:problem=takty 33-39 zapisane na dolnym marginesie strony, na dopisanej pięciolini, z odsyłaczem vi-de re-tro	!	!	!	!	!	!	!	!	!	!	!	!	!	!	!	!	!	!	!	!	!	!	!	!	!
1ryy	.	8r	.	8r	.	.	.	.	.	.	.	.	.	.	.	.	.	1r	.	.	.	0r	0r	0r	.	0r	.
!	!	!LO:SIC:o=8dd\L:v	!	!	!	!	!	!	!	!	!	!	!	!	!	!	!	!	!	!	!	!	!	!	!	!	!
.	.	8dd\L|	.	8ff\L|	.	.	.	.	.	.	.	.	.	.	.	.	.	.	.	.	.	.	.	.	.	.	.
!	!	!LO:SIC:o=8cc\:v	!	!	!	!	!	!	!	!	!	!	!	!	!	!	!	!	!	!	!	!	!	!	!	!	!
.	.	(8cc\	.	(>8ee-\	.	.	.	.	.	.	.	.	.	.	.	.	.	.	.	.	.	.	.	.	.	.	.
!	!	!LO:SIC:o=8b-\J:v	!	!	!	!	!	!	!	!	!	!	!	!	!	!	!	!	!	!	!	!	!	!	!	!	!
.	.	8b-\J)	.	8dd\J)	.	.	.	.	.	.	.	.	.	.	.	.	.	.	.	.	.	.	.	.	.	.	.
.	.	8b-\L	.	8dd\L	.	.	.	.	.	.	.	.	.	.	.	.	.	.	.	.	.	.	.	.	.	.	.
.	.	8a\	.	8cc\	.	.	.	.	.	.	.	.	.	.	.	.	.	.	.	.	.	.	.	.	.	.	.
.	.	8a\	.	8cc\	.	.	.	.	.	.	.	.	.	.	.	.	.	.	.	.	.	.	.	.	.	.	.
.	.	8a\J	.	8cc\J	.	.	.	.	.	.	.	.	.	.	.	.	.	.	.	.	.	.	.	.	.	.	.
=34	=34	=34	=34	=34	=34	=34-	=34	=34	=34	=34-	=34	=34	=34	=34-	=34	=34	=34	=34-	=34	=34	=34	=34-	=34-	=34-	=34	=34-	=34
1ryy	.	8r	.	8r	.	.	.	.	.	.	.	.	.	.	.	.	.	1r	.	.	.	.	.	.	.	.	.
.	.	8a\L	.	8cc\L	.	.	.	.	.	.	.	.	.	.	.	.	.	.	.	.	.	.	.	.	.	.	.
.	.	8b-\	.	8dd\	.	.	.	.	.	.	.	.	.	.	.	.	.	.	.	.	.	.	.	.	.	.	.
.	.	8cc\J	.	8ee-\J	.	.	.	.	.	.	.	.	.	.	.	.	.	.	.	.	.	.	.	.	.	.	.
!	!	!	!	!LO:LB:g=original	!	!	!	!	!	!	!	!	!	!	!	!	!	!	!	!	!	!	!	!	!	!	!
.	.	8cc\L	.	8ee-\L	.	.	.	.	.	.	.	.	.	.	.	.	.	.	.	.	.	.	.	.	.	.	.
.	.	8b-\	.	8dd\	.	.	.	.	.	.	.	.	.	.	.	.	.	.	.	.	.	.	.	.	.	.	.
.	.	8ee-\	.	8gg\	.	.	.	.	.	.	.	.	.	.	.	.	.	.	.	.	.	.	.	.	.	.	.
.	.	8dd\J	.	8ff\J	.	.	.	.	.	.	.	.	.	.	.	.	.	.	.	.	.	.	.	.	.	.	.
!	!	!	!	!	!	!	!	!	!	!	!	!	!	!	!	!	!	!	!	!	!	!	!LO:PB:g=original	!	!	!	!
=35	=35	=35	=35	=35	=35	=35-	=35	=35	=35	=35-	=35	=35	=35	=35-	=35	=35	=35	=35-	=35	=35	=35	=35	=35	=35	=35	=35	=35
1ryy	.	4r	.	4r	.	00r	.	.	.	00r	.	.	.	00r	.	.	.	1r	.	.	.	4d/	4b-\	4b-\	.	4bb-\	.
.	.	4B-/	.	4B-/	.	.	.	.	.	.	.	.	.	.	.	.	.	.	.	.	.	2d/	2b-\	2b-\	.	2b-\	.
.	.	4d/	.	4d/	.	.	.	.	.	.	.	.	.	.	.	.	.	.	.	.	.	.	.	.	.	.	.
.	.	4f/	.	4f/	.	.	.	.	.	.	.	.	.	.	.	.	.	.	.	.	.	4f/	4cc\	4a\	.	4cc\	.
=36	=36	=36	=36	=36	=36	=36-	=36	=36	=36	=36-	=36	=36	=36	=36-	=36	=36	=36	=36-	=36	=36	=36	=36	=36	=36	=36	=36	=36
1ryy	.	4b-\	.	4b-\	.	.	.	.	.	.	.	.	.	.	.	.	.	1r	.	.	.	4b-\	4dd\	4b-\	.	4dd\	.
.	.	4r	.	4r	.	.	.	.	.	.	.	.	.	.	.	.	.	.	.	.	.	4cc\	4ee-\	4cc\	.	4ee-\	.
.	.	2r	.	2r	.	.	.	.	.	.	.	.	.	.	.	.	.	.	.	.	.	4dd\	4ff\	4dd\	.	4ff\	.
.	.	.	.	.	.	.	.	.	.	.	.	.	.	.	.	.	.	.	.	.	.	4r	4r	4ee-\	.	8bb-\L	.
.	.	.	.	.	.	.	.	.	.	.	.	.	.	.	.	.	.	.	.	.	.	.	.	.	.	8gg\J	.
=37	=37	=37	=37	=37	=37	=37-	=37	=37	=37	=37-	=37	=37	=37	=37-	=37	=37	=37	=37-	=37	=37	=37	=37	=37	=37	=37	=37	=37
1ryy	.	4r	.	4r	.	.	.	.	.	.	.	.	.	.	.	.	.	1r	.	.	.	4r	4r	4dd\	.	4ff\	.
.	.	4B-/	.	4B-/	.	.	.	.	.	.	.	.	.	.	.	.	.	.	.	.	.	4b-\	4dd\	8ee-\L	.	8gg\L	.
.	.	.	.	.	.	.	.	.	.	.	.	.	.	.	.	.	.	.	.	.	.	.	.	8dd\J	.	8ff\J	.
.	.	4d/	.	4d/	.	.	.	.	.	.	.	.	.	.	.	.	.	.	.	.	.	8dd\L	8ff\L	8dd\L	.	8ff\L	.
.	.	.	.	.	.	.	.	.	.	.	.	.	.	.	.	.	.	.	.	.	.	8cc\	8ee-\	8cc\	.	8ee-\	.
.	.	4f/	.	4f/	.	.	.	.	.	.	.	.	.	.	.	.	.	.	.	.	.	8b-\	8dd\	8b-\	.	8dd\	.
.	.	.	.	.	.	.	.	.	.	.	.	.	.	.	.	.	.	.	.	.	.	8f\J	8cc\J	8a\J	.	8cc\J	.
=38	=38	=38	=38	=38	=38	=38-	=38	=38	=38	=38-	=38	=38	=38	=38-	=38	=38	=38	=38-	=38	=38	=38	=38	=38	=38	=38	=38	=38
1ryy	.	4B-/	.	4B-/	.	.	.	.	.	.	.	.	.	.	.	.	.	1r	.	.	.	4d/	4b-\	4b-\	.	4b-\	.
.	.	8B-/L	.	8B-/L	.	.	.	.	.	.	.	.	.	.	.	.	.	.	.	.	.	8d/L	8b-\L	8b-\L	.	8b-\L	.
.	.	8B-/J	.	8B-/J	.	.	.	.	.	.	.	.	.	.	.	.	.	.	.	.	.	8d/J	8b-\J	8b-\J	.	8b-\J	.
.	.	4B-/	.	4B-/	.	.	.	.	.	.	.	.	.	.	.	.	.	.	.	.	.	4d/	4b-\	4b-\	.	4b-\	.
.	.	4r	.	4r	.	.	.	.	.	.	.	.	.	.	.	.	.	.	.	.	.	4r	4r	4r	.	4r	.
=39	=39	=39	=39	=39	=39	=39-	=39	=39	=39	=39	=39	=39	=39	=39-	=39	=39	=39	=39-	=39	=39	=39	=39	=39	=39	=39	=39	=39
!	!	!	!	!	!	!	!	!	!	!	!	!	!	!	!	!	!	!	!	!	!	!LO:MO:mod=!null:null	!LO:MO:mod=!null:null	!	!	!LO:MO:mod=!null:null	!
!	!	!	!	!	!	!	!	!	!	!	!	!	!	!	!	!	!	!	!	!	!	!LO:TX:a:t=17	!LO:TX:a:t=17	!	!	!LO:TX:a:t=17	!
1ryy	.	1cc	.	8r	.	00r	.	.	.	1d	.	et	Et	00r	.	.	.	1r	.	.	.	1r	1r	00r	.	1r	.
.	.	.	.	8dd\L	.	.	.	.	.	.	.	.	.	.	.	.	.	.	.	.	.	.	.	.	.	.	.
.	.	.	.	8dd\	.	.	.	.	.	.	.	.	.	.	.	.	.	.	.	.	.	.	.	.	.	.	.
.	.	.	.	8dd\J	.	.	.	.	.	.	.	.	.	.	.	.	.	.	.	.	.	.	.	.	.	.	.
.	.	.	.	8cc\L	.	.	.	.	.	.	.	.	.	.	.	.	.	.	.	.	.	.	.	.	.	.	.
.	.	.	.	8b-\J	.	.	.	.	.	.	.	.	.	.	.	.	.	.	.	.	.	.	.	.	.	.	.
.	.	.	.	8ee-\L	.	.	.	.	.	.	.	.	.	.	.	.	.	.	.	.	.	.	.	.	.	.	.
.	.	.	.	8dd\J	.	.	.	.	.	.	.	.	.	.	.	.	.	.	.	.	.	.	.	.	.	.	.
=40	=40	=40	=40	=40	=40	=40-	=40	=40	=40	=40	=40	=40	=40	=40-	=40	=40	=40	=40-	=40	=40	=40	=40-	=40-	=40-	=40	=40-	=40
1ryy	.	8r	.	1dd	.	.	.	.	.	2d\	.	u-	u-	.	.	.	.	1r	.	.	.	1r	1r	.	.	1r	.
.	.	8a/L	.	.	.	.	.	.	.	.	.	.	.	.	.	.	.	.	.	.	.	.	.	.	.	.	.
.	.	8f#X/	.	.	.	.	.	.	.	.	.	.	.	.	.	.	.	.	.	.	.	.	.	.	.	.	.
.	.	8g/J	.	.	.	.	.	.	.	.	.	.	.	.	.	.	.	.	.	.	.	.	.	.	.	.	.
.	.	8a/L	.	.	.	.	.	.	.	2d\	.	-nam	-nam	.	.	.	.	.	.	.	.	.	.	.	.	.	.
.	.	8b-/	.	.	.	.	.	.	.	.	.	.	.	.	.	.	.	.	.	.	.	.	.	.	.	.	.
.	.	8cc/	.	.	.	.	.	.	.	.	.	.	.	.	.	.	.	.	.	.	.	.	.	.	.	.	.
.	.	8a/J	.	.	.	.	.	.	.	.	.	.	.	.	.	.	.	.	.	.	.	.	.	.	.	.	.
!	!	!	!	!LO:LB:g=original	!	!	!	!	!	!LO:LB:g=original	!	!	!	!	!	!	!	!	!	!	!	!	!	!	!	!	!
=41	=41	=41	=41	=41	=41	=41-	=41	=41	=41	=41	=41	=41	=41	=41-	=41	=41	=41	=41-	=41	=41	=41	=41-	=41-	=41-	=41	=41-	=41
1ryy	.	4b-\	.	8r	.	.	.	.	.	2d\	.	San-	san-	.	.	.	.	1r	.	.	.	1r	1r	.	.	1r	.
.	.	.	.	8dd\L	.	.	.	.	.	.	.	.	.	.	.	.	.	.	.	.	.	.	.	.	.	.	.
.	.	4r	.	8dd\	.	.	.	.	.	.	.	.	.	.	.	.	.	.	.	.	.	.	.	.	.	.	.
.	.	.	.	8dd\J	.	.	.	.	.	.	.	.	.	.	.	.	.	.	.	.	.	.	.	.	.	.	.
.	.	2r	.	8cc\L|	.	.	.	.	.	4d\	.	-cta(m)	-cta(m)	.	.	.	.	.	.	.	.	.	.	.	.	.	.
.	.	.	.	8b-\J|	.	.	.	.	.	.	.	.	.	.	.	.	.	.	.	.	.	.	.	.	.	.	.
.	.	.	.	(>8ee-\L	.	.	.	.	.	4d\	.	Ca-	ca-	.	.	.	.	.	.	.	.	.	.	.	.	.	.
.	.	.	.	8dd\J)	.	.	.	.	.	.	.	.	.	.	.	.	.	.	.	.	.	.	.	.	.	.	.
=42	=42	=42	=42	=42	=42	=42-	=42	=42	=42	=42	=42	=42	=42	=42-	=42	=42	=42	=42-	=42	=42	=42	=42-	=42-	=42-	=42	=42-	=42
1ryy	.	8r	.	1dd	.	.	.	.	.	4.d\	.	-tho-	-tho-	.	.	.	.	1r	.	.	.	1r	1r	.	.	1r	.
.	.	8a/L	.	.	.	.	.	.	.	.	.	.	.	.	.	.	.	.	.	.	.	.	.	.	.	.	.
.	.	8f#X/	.	.	.	.	.	.	.	.	.	.	.	.	.	.	.	.	.	.	.	.	.	.	.	.	.
.	.	8g/J	.	.	.	.	.	.	.	8d\	.	-li-	-li-	.	.	.	.	.	.	.	.	.	.	.	.	.	.
.	.	8a/L	.	.	.	.	.	.	.	4d\	.	-ca(m)	-ca(m)	.	.	.	.	.	.	.	.	.	.	.	.	.	.
.	.	8b-/	.	.	.	.	.	.	.	.	.	.	.	.	.	.	.	.	.	.	.	.	.	.	.	.	.
.	.	8cc/	.	.	.	.	.	.	.	4d\	.	et	et	.	.	.	.	.	.	.	.	.	.	.	.	.	.
.	.	8a/J	.	.	.	.	.	.	.	.	.	.	.	.	.	.	.	.	.	.	.	.	.	.	.	.	.
=43	=43	=43	=43	=43	=43	=43-	=43	=43	=43	=43	=43	=43	=43	=43-	=43	=43	=43	=43-	=43	=43	=43	=43-	=43-	=43-	=43	=43-	=43
1ryy	.	4b-/	.	8r	.	1r	.	.	.	4d\	.	a-	a-	00r	.	.	.	1r	.	.	.	1r	1r	00r	.	1r	.
.	.	.	.	8dd\L	.	.	.	.	.	.	.	.	.	.	.	.	.	.	.	.	.	.	.	.	.	.	.
.	.	4g/	.	8gg\	.	.	.	.	.	4g\	.	-po-	-po-	.	.	.	.	.	.	.	.	.	.	.	.	.	.
.	.	.	.	8gg\J	.	.	.	.	.	.	.	.	.	.	.	.	.	.	.	.	.	.	.	.	.	.	.
.	.	2r	.	8gg\L	.	.	.	.	.	8g\L	.	-sto-	-sto-	.	.	.	.	.	.	.	.	.	.	.	.	.	.
.	.	.	.	8ff\J	.	.	.	.	.	8f\J	.	.	.	.	.	.	.	.	.	.	.	.	.	.	.	.	.
.	.	.	.	8dd\L	.	.	.	.	.	8e-\L	.	-li-	-li-	.	.	.	.	.	.	.	.	.	.	.	.	.	.
.	.	.	.	8ff\J	.	.	.	.	.	8f\J	.	.	.	.	.	.	.	.	.	.	.	.	.	.	.	.	.
=44	=44	=44	=44	=44	=44	=44	=44	=44	=44	=44	=44	=44	=44	=44-	=44	=44	=44	=44-	=44	=44	=44	=44-	=44-	=44-	=44	=44-	=44
1ryy	.	8r	.	4ee-\	.	4r	.	.	.	4e-X\	.	-cam	-cam	.	.	.	.	1r	.	.	.	1r	1r	.	.	1r	.
.	.	8g\L|	.	.	.	.	.	.	.	.	.	.	.	.	.	.	.	.	.	.	.	.	.	.	.	.	.
!	!	!	!	!	!	!LO:MO:mod=!null:null	!	!	!	!	!	!	!	!	!	!	!	!	!	!	!	!	!	!	!	!	!
!	!	!	!	!	!	!LO:TX:a:i:t=Solo:rj	!	!	!	!	!	!	!	!	!	!	!	!	!	!	!	!	!	!	!	!	!
.	.	[>8cc\	.	4r	.	4c\	.	Ec-	Ec-	4r	.	.	.	.	.	.	.	.	.	.	.	.	.	.	.	.	.
.	.	8cc\J]	.	.	.	.	.	.	.	.	.	.	.	.	.	.	.	.	.	.	.	.	.	.	.	.	.
!	!	!LO:LB:g=original	!	!	!	!	!	!	!	!	!	!	!	!	!	!	!	!	!	!	!	!	!	!	!	!	!
.	.	(>8cc\L	.	2r	.	8c\L	.	-cle-	-cle-	2r	.	.	.	.	.	.	.	.	.	.	.	.	.	.	.	.	.
.	.	8b-\	.	.	.	8B-\J	.	.	.	.	.	.	.	.	.	.	.	.	.	.	.	.	.	.	.	.	.
.	.	8g\)	.	.	.	8G\L	.	-si-	-si-	.	.	.	.	.	.	.	.	.	.	.	.	.	.	.	.	.	.
.	.	8b-\J	.	.	.	8B-\J	.	.	.	.	.	.	.	.	.	.	.	.	.	.	.	.	.	.	.	.	.
=45	=45	=45	=45	=45	=45	=45	=45	=45	=45	=45	=45	=45	=45	=45-	=45	=45	=45	=45-	=45	=45	=45	=45-	=45-	=45-	=45	=45-	=45
1ryy	.	4a/	.	8r	.	4A\	.	-am	-am.	4r	.	.	.	.	.	.	.	1r	.	.	.	1r	1r	.	.	1r	.
.	.	.	.	8cc\L	.	.	.	.	.	.	.	.	.	.	.	.	.	.	.	.	.	.	.	.	.	.	.
.	.	4r	.	8ff\	.	4r	.	.	.	4c\	.	Con-	Con-	.	.	.	.	.	.	.	.	.	.	.	.	.	.
.	.	.	.	8ff\J	.	.	.	.	.	.	.	.	.	.	.	.	.	.	.	.	.	.	.	.	.	.	.
.	.	2r	.	8ff\L	.	2r	.	.	.	8f\L	.	-fi-	-fi-	.	.	.	.	.	.	.	.	.	.	.	.	.	.
.	.	.	.	8ee-\	.	.	.	.	.	8e-\J	.	.	.	.	.	.	.	.	.	.	.	.	.	.	.	.	.
.	.	.	.	8cc\	.	.	.	.	.	8c\L	.	-te-	-te-	.	.	.	.	.	.	.	.	.	.	.	.	.	.
.	.	.	.	8ee-\J	.	.	.	.	.	8e-\J	.	.	.	.	.	.	.	.	.	.	.	.	.	.	.	.	.
=46	=46	=46	=46	=46	=46	=46	=46	=46	=46	=46	=46	=46	=46	=46-	=46	=46	=46	=46-	=46	=46	=46	=46-	=46-	=46-	=46	=46-	=46
1ryy	.	8r	.	4dd\	.	8r	.	.	.	4d\	.	-or	-or	.	.	.	.	1r	.	.	.	1r	1r	.	.	1r	.
.	.	8e-/L|	.	.	.	8F\	.	u-	u-	.	.	.	.	.	.	.	.	.	.	.	.	.	.	.	.	.	.
.	.	[<8b-/	.	4r	.	8B-\	.	-num	-num	4r	.	.	.	.	.	.	.	.	.	.	.	.	.	.	.	.	.
.	.	8b-/J]	.	.	.	8B-\	.	Bap-	ba-	.	.	.	.	.	.	.	.	.	.	.	.	.	.	.	.	.	.
.	.	8b-/L	.	2r	.	8B-\L	.	-tis-	-pti-	2r	.	.	.	.	.	.	.	.	.	.	.	.	.	.	.	.	.
.	.	8a/	.	.	.	8A\	.	.	.	.	.	.	.	.	.	.	.	.	.	.	.	.	.	.	.	.	.
.	.	8f/	.	.	.	8F\	.	-mam	-smam	.	.	.	.	.	.	.	.	.	.	.	.	.	.	.	.	.	.
.	.	8a/J	.	.	.	8A\J	.	.	.	.	.	.	.	.	.	.	.	.	.	.	.	.	.	.	.	.	.
!	!	!	!	!LO:LB:g=original	!	!LO:LB:g=original	!	!	!	!	!	!	!	!	!	!	!	!	!	!	!	!	!	!	!	!	!
=47	=47	=47	=47	=47	=47	=47	=47	=47	=47	=47	=47	=47	=47	=47-	=47	=47	=47	=47-	=47	=47	=47	=47-	=47-	=47-	=47	=47-	=47
1ryy	.	4g/	.	8r	.	4G\	.	.	.	8r	.	.	.	00r	.	.	.	1r	.	.	.	1r	1r	00r	.	1r	.
.	.	.	.	8b-\L	.	.	.	.	.	8B-\L	.	in	in	.	.	.	.	.	.	.	.	.	.	.	.	.	.
.	.	4r	.	8ee-\	.	4r	.	.	.	8e-\J	.	.	.	.	.	.	.	.	.	.	.	.	.	.	.	.	.
.	.	.	.	8ee-\J	.	.	.	.	.	8e-\	.	re-	re-	.	.	.	.	.	.	.	.	.	.	.	.	.	.
.	.	2r	.	8ee-\L	.	2r	.	.	.	8e-\L	.	-miſ-	-mis-	.	.	.	.	.	.	.	.	.	.	.	.	.	.
.	.	.	.	8dd\	.	.	.	.	.	8d\J	.	.	.	.	.	.	.	.	.	.	.	.	.	.	.	.	.
.	.	.	.	8b-\	.	.	.	.	.	8B-\L	.	-si-	-si-	.	.	.	.	.	.	.	.	.	.	.	.	.	.
.	.	.	.	8dd\J	.	.	.	.	.	8d\J	.	.	.	.	.	.	.	.	.	.	.	.	.	.	.	.	.
!	!	!	!	!	!	!	!	!	!	!LO:PB:g=original	!	!	!	!	!	!	!	!	!	!	!	!	!	!	!	!	!
=48	=48	=48	=48	=48	=48	=48	=48	=48	=48	=48	=48	=48	=48	=48-	=48	=48	=48	=48-	=48	=48	=48	=48-	=48-	=48-	=48	=48-	=48
1ryy	.	8r	.	4cc\	.	8r	.	.	.	4c\	.	-o-	-o-	.	.	.	.	1r	.	.	.	1r	1r	.	.	1r	.
.	.	8e-/L|	.	.	.	8E-\L	.	pec-	pec-	.	.	.	.	.	.	.	.	.	.	.	.	.	.	.	.	.	.
.	.	[<8g/	.	4r	.	8A\J	.	.	.	4B-\	.	-nem	-nem	.	.	.	.	.	.	.	.	.	.	.	.	.	.
.	.	8g/J]	.	.	.	8A\	.	-ca-	-ca-	.	.	.	.	.	.	.	.	.	.	.	.	.	.	.	.	.	.
.	.	8g/L	.	2r	.	8A\L	.	-to-	-to-	2r	.	.	.	.	.	.	.	.	.	.	.	.	.	.	.	.	.
.	.	8g/	.	.	.	8G\	.	.	.	.	.	.	.	.	.	.	.	.	.	.	.	.	.	.	.	.	.
!	!	!LO:SIC:o=8en/:v	!	!	!	!	!	!	!	!	!	!	!	!	!	!	!	!	!	!	!	!	!	!	!	!	!
.	.	8e-/	.	.	.	8E-\	.	.	.	.	.	.	.	.	.	.	.	.	.	.	.	.	.	.	.	.	.
.	.	8g/J	.	.	.	8G\J	.	.	.	.	.	.	.	.	.	.	.	.	.	.	.	.	.	.	.	.	.
=49	=49	=49	=49	=49	=49	=49	=49	=49	=49	=49	=49	=49	=49	=49-	=49	=49	=49	=49-	=49	=49	=49	=49-	=49-	=49-	=49	=49-	=49
1ryy	.	4f#X/	.	8r	.	4F#X\	.	-rum	-rum.	4r	.	.	.	.	.	.	.	1r	.	.	.	1r	1r	.	.	1r	.
.	.	.	.	8a\L	.	.	.	.	.	.	.	.	.	.	.	.	.	.	.	.	.	.	.	.	.	.	.
.	.	4r	.	8dd\	.	4r	.	.	.	8d\	.	et	Et	.	.	.	.	.	.	.	.	.	.	.	.	.	.
.	.	.	.	8dd\J	.	.	.	.	.	8d\	.	ex-	ex-	.	.	.	.	.	.	.	.	.	.	.	.	.	.
.	.	2r	.	8dd\L	.	2r	.	.	.	8d\L	.	-pec-	-pe-	.	.	.	.	.	.	.	.	.	.	.	.	.	.
.	.	.	.	8cc\	.	.	.	.	.	8c\J	.	.	.	.	.	.	.	.	.	.	.	.	.	.	.	.	.
!	!	!	!	!	!	!	!	!	!	!LO:SIC:o=8A\L:v	!	!	!	!	!	!	!	!	!	!	!	!	!	!	!	!	!
.	.	.	.	8b-\	.	.	.	.	.	8B-\L	.	-to	-cto	.	.	.	.	.	.	.	.	.	.	.	.	.	.
.	.	.	.	8cc\J	.	.	.	.	.	8c\J	.	.	.	.	.	.	.	.	.	.	.	.	.	.	.	.	.
=50	=50	=50	=50	=50	=50	=50	=50	=50	=50	=50	=50	=50	=50	=50-	=50	=50	=50	=50-	=50	=50	=50	=50-	=50-	=50-	=50	=50-	=50
1ryy	.	8d/	.	8cc\L	.	4G\	.	et	et	8c\L	.	Re-	re-	.	.	.	.	1r	.	.	.	1r	1r	.	.	1r	.
.	.	4d/	.	8b-\	.	.	.	.	.	8B-\J	.	.	.	.	.	.	.	.	.	.	.	.	.	.	.	.	.
.	.	.	.	8b-\	.	4G\	.	ex-	ex-	4B-\	.	-sur-	-sur-	.	.	.	.	.	.	.	.	.	.	.	.	.	.
.	.	4d/	.	8b-\J	.	.	.	.	.	.	.	.	.	.	.	.	.	.	.	.	.	.	.	.	.	.	.
*	*	*	*	*2\right	*	*	*	*	*	*	*	*	*	*	*	*	*	*	*	*	*	*	*	*	*	*	*
.	.	.	.	2cc\	.	4A\	.	-pec-	-pe-	4c\	.	-rec-	-re-	.	.	.	.	.	.	.	.	.	.	.	.	.	.
.	.	4d/	.	.	.	.	.	.	.	.	.	.	.	.	.	.	.	.	.	.	.	.	.	.	.	.	.
.	.	.	.	.	.	4A\	.	-to	-cto	4c\	.	-ti-	-cti-	.	.	.	.	.	.	.	.	.	.	.	.	.	.
.	.	8d/	.	.	.	.	.	.	.	.	.	.	.	.	.	.	.	.	.	.	.	.	.	.	.	.	.
=51	=51	=51	=51	=51	=51	=51	=51	=51	=51	=51	=51	=51	=51	=51-	=51	=51	=51	=51-	=51	=51	=51	=51-	=51-	=51-	=51	=51-	=51
1ryy	.	8d/	.	8cc\L	.	8A\L	.	re-	re-	8c\L	.	-o-	-o-	00r	.	.	.	1r	.	.	.	1r	1r	00r	.	1r	.
.	.	4d/	.	8b-\	.	8G\J	.	.	.	8B-\J	.	.	.	.	.	.	.	.	.	.	.	.	.	.	.	.	.
.	.	.	.	8b-\	.	4G\	.	-sur-	-sur-	4B-\	.	-nem	-nem	.	.	.	.	.	.	.	.	.	.	.	.	.	.
.	.	4d/	.	8b-\J	.	.	.	.	.	.	.	.	.	.	.	.	.	.	.	.	.	.	.	.	.	.	.
.	.	.	.	2cc\	.	4A\	.	-re-	-re-	4c\	.	mor-	mor-	.	.	.	.	.	.	.	.	.	.	.	.	.	.
.	.	4d/	.	.	.	.	.	.	.	.	.	.	.	.	.	.	.	.	.	.	.	.	.	.	.	.	.
.	.	.	.	.	.	4G\	.	-cti-	-cti-	4c\	.	-tu-	-tu-	.	.	.	.	.	.	.	.	.	.	.	.	.	.
.	.	8d/	.	.	.	.	.	.	.	.	.	.	.	.	.	.	.	.	.	.	.	.	.	.	.	.	.
!	!	!LO:LB:g=original	!	!	!	!	!	!	!	!	!	!	!	!	!	!	!	!	!	!	!	!	!	!	!	!	!
=52	=52	=52	=52	=52	=52	=52	=52	=52	=52	=52	=52	=52	=52	=52-	=52	=52	=52	=52-	=52	=52	=52	=52-	=52-	=52-	=52	=52-	=52
1ryy	.	2d/	.	8b-\L	.	1G	.	-o-	-o-	2B-\	.	-o-	-o-	.	.	.	.	1r	.	.	.	1r	1r	.	.	1r	.
.	.	.	.	8gg\	.	.	.	.	.	.	.	.	.	.	.	.	.	.	.	.	.	.	.	.	.	.	.
.	.	.	.	8gg\	.	.	.	.	.	.	.	.	.	.	.	.	.	.	.	.	.	.	.	.	.	.	.
.	.	.	.	8gg\J	.	.	.	.	.	.	.	.	.	.	.	.	.	.	.	.	.	.	.	.	.	.	.
.	.	2g/	.	8gg\L	.	.	.	.	.	2c#X\	.	.	.	.	.	.	.	.	.	.	.	.	.	.	.	.	.
.	.	.	.	8cc#X\	.	.	.	.	.	.	.	.	.	.	.	.	.	.	.	.	.	.	.	.	.	.	.
.	.	.	.	8cc#\	.	.	.	.	.	.	.	.	.	.	.	.	.	.	.	.	.	.	.	.	.	.	.
.	.	.	.	8cc#\J	.	.	.	.	.	.	.	.	.	.	.	.	.	.	.	.	.	.	.	.	.	.	.
!	!	!	!	!LO:LB:g=original	!	!	!	!	!	!	!	!	!	!	!	!	!	!	!	!	!	!	!	!	!	!	!
=53	=53	=53	=53	=53	=53	=53	=53	=53	=53	=53	=53	=53	=53	=53-	=53	=53	=53	=53-	=53	=53	=53	=53-	=53-	=53-	=53	=53-	=53
1ryy	.	(<8f#X/L	.	1dd	.	4F#X\	.	-nem	-nem	4d\	.	-rum	-rum,	.	.	.	.	1r	.	.	.	1r	1r	.	.	1r	.
.	.	8a/)	.	.	.	.	.	.	.	.	.	.	.	.	.	.	.	.	.	.	.	.	.	.	.	.	.
.	.	8a/|	.	.	.	4r	.	.	.	4r	.	.	.	.	.	.	.	.	.	.	.	.	.	.	.	.	.
.	.	8a/J|	.	.	.	.	.	.	.	.	.	.	.	.	.	.	.	.	.	.	.	.	.	.	.	.	.
.	.	(<8a/L	.	.	.	2r	.	.	.	2r	.	.	.	.	.	.	.	.	.	.	.	.	.	.	.	.	.
.	.	8cc/)	.	.	.	.	.	.	.	.	.	.	.	.	.	.	.	.	.	.	.	.	.	.	.	.	.
.	.	8cc/|	.	.	.	.	.	.	.	.	.	.	.	.	.	.	.	.	.	.	.	.	.	.	.	.	.
.	.	8cc/J|	.	.	.	.	.	.	.	.	.	.	.	.	.	.	.	.	.	.	.	.	.	.	.	.	.
!	!	!	!	!	!	!LO:LB:g=original	!	!	!	!	!	!	!	!	!	!	!	!	!	!	!	!	!	!	!	!	!
=54	=54	=54	=54	=54	=54	=54	=54	=54	=54	=54	=54	=54	=54	=54-	=54	=54	=54	=54-	=54	=54	=54	=54-	=54-	=54-	=54	=54-	=54
1ryy	.	2b-/	.	8dd\L	.	4G\	.	mor-	mor-	4B-\	.	mor-	mor-	.	.	.	.	1r	.	.	.	1r	1r	.	.	1r	.
.	.	.	.	8b-\	.	.	.	.	.	.	.	.	.	.	.	.	.	.	.	.	.	.	.	.	.	.	.
.	.	.	.	8a\	.	4G\	.	-tu-	-tu-	4G/	.	-tu-	-tu-	.	.	.	.	.	.	.	.	.	.	.	.	.	.
.	.	.	.	8g\J	.	.	.	.	.	.	.	.	.	.	.	.	.	.	.	.	.	.	.	.	.	.	.
.	.	2g/	.	8f#X/L	.	2G\	.	-o-	-o-	2c#X\	.	-o-	-o-	.	.	.	.	.	.	.	.	.	.	.	.	.	.
.	.	.	.	8g/J	.	.	.	.	.	.	.	.	.	.	.	.	.	.	.	.	.	.	.	.	.	.	.
.	.	.	.	8c#X/L	.	.	.	.	.	.	.	.	.	.	.	.	.	.	.	.	.	.	.	.	.	.	.
.	.	.	.	8d/J	.	.	.	.	.	.	.	.	.	.	.	.	.	.	.	.	.	.	.	.	.	.	.
!	!	!	!	!	!	!	!	!	!	!LO:LB:g=original	!	!	!	!	!	!	!	!	!	!	!	!	!	!	!	!	!
=55	=55	=55	=55	=55	=55	=55	=55	=55	=55	=55	=55	=55	=55	=55-	=55	=55	=55	=55-	=55	=55	=55	=55-	=55-	=55-	=55	=55-	=55
1ryy	.	4f#X/	.	4d/	.	4F#X\	.	-rum	-rum.	4d\	.	-rum	-rum.	1r	.	.	.	1r	.	.	.	1r	1r	1r	.	1r	.
.	.	4f#/	.	4d/	.	4r	.	.	.	4r	.	.	.	.	.	.	.	.	.	.	.	.	.	.	.	.	.
.	.	4f#/	.	4d/	.	2r	.	.	.	2r	.	.	.	.	.	.	.	.	.	.	.	.	.	.	.	.	.
.	.	4r	.	4r	.	.	.	.	.	.	.	.	.	.	.	.	.	.	.	.	.	.	.	.	.	.	.
=56	=56	=56	=56	=56	=56	=56	=56	=56	=56	=56	=56	=56	=56	=56	=56	=56	=56	=56	=56	=56	=56	=56	=56	=56	=56	=56	=56
!	!	!	!	!	!LO:DY:a:rj:t=for	!	!	!	!	!	!	!	!	!	!	!	!	!	!	!	!	!	!LO:TX:a:i:t=Tutti	!	!	!LO:TX:a:i:t=Tutti	!
!	!	!	!	!	!	!	!	!	!	!	!	!	!	!	!	!	!	!	!	!	!	!LO:MO:mod=!LO&colon;TX&colon;a&colon;i&colon;t=Tutti	!	!LO:MO:mod=!LO&colon;TX&colon;a&colon;i&colon;t=Tutti	!	!	!
!	!	!	!	!	!	!	!	!	!	!	!	!	!	!	!	!	!	!	!	!	!	!null	!	!null	!	!	!
!	!	!	!LO:DY:t= :mod=%s	!	!	!	!	!	!	!	!	!	!	!	!	!	!	!	!	!	!	!	!	!	!	!	!
!	!	!	!LO:MO:mod=!LO&colon;DY&colon;ed	!	!	!	!	!	!	!	!	!	!	!	!	!	!	!	!	!	!	!	!	!	!	!	!
!	!	!	!null	!	!	!	!	!	!	!	!	!	!	!	!	!	!	!	!	!	!	!	!	!	!	!	!
1ryy	.	4b-/ 4d/	f	4bb-/ 4b-/ 4d/	f	4B-\	.	et	Et	4d\	.	Et	Et	4f\	.	Et	Et	4b-\	.	et	Et	4d/	4b-\	4b-\	.	4b-\	.
!	!	!	!LO:DY:a:t=for	!	!	!	!	!	!	!	!	!	!	!	!	!	!	!	!	!	!	!	!	!	!	!	!
!	!	!	!LO:MO:mod=.	!	!	!	!	!	!	!	!	!	!	!	!	!	!	!	!	!	!	!	!	!	!	!	!
.	.	2b-/ 2d/	f	16b-\LL	.	4BB-/	.	vi-	vi-	4d\	.	vi-	vi-	4f\	.	vi-	vi-	4b-\	.	vi-	vi-	2d/	2b-\	2b-\	.	2b-\	.
.	.	.	.	16a\	.	.	.	.	.	.	.	.	.	.	.	.	.	.	.	.	.	.	.	.	.	.	.
.	.	.	.	16b-\	.	.	.	.	.	.	.	.	.	.	.	.	.	.	.	.	.	.	.	.	.	.	.
.	.	.	.	16cc\JJ	.	.	.	.	.	.	.	.	.	.	.	.	.	.	.	.	.	.	.	.	.	.	.
.	.	.	.	4b-\	.	4D\	.	-ta(m)	-ta(m)	4B-\	.	-ta(m)	-ta(m)	4f\	.	-ta(m)	-ta(m)	4b-\	.	-tam	-tam	.	.	.	.	.	.
.	.	4a/ 4f/	.	4cc\	.	4F\	.	ven-	ven-	4A\	.	.	.	4f\	.	ven-	ven-	4cc\	.	ven-	ven-	4f/	4cc\	4a\	.	4cc\	.
!	!	!	!	!	!	!	!	!	!	!	!	!	!	!	!	!	!	!	!	!	!	!	!	!LO:LB:g=original	!	!LO:LB:g=original	!
=57	=57	=57	=57	=57	=57	=57	=57	=57	=57	=57	=57	=57	=57	=57	=57	=57	=57	=57	=57	=57	=57	=57	=57	=57	=57	=57	=57
1ryy	.	4b-\	.	4dd\	.	4B-\	.	-tu-	-tu-	4B-\	.	ven-	ven-	2f\	.	-tu-	-tu-	4dd\	.	-tu-	-tu-	4b-\	4dd\	4b-\	.	4dd\	.
.	.	.	.	16qqff/	.	.	.	.	.	.	.	.	.	.	.	.	.	.	.	.	.	.	.	.	.	.	.
.	.	8cc\L	.	8ee-\L	.	4F\	.	.	.	4c\	.	-tu-	-tu-	.	.	.	.	4ee-\	.	.	.	4cc\	4ee-\	4cc\	.	4ee-\	.
.	.	16b-\L	.	16dd\L	.	.	.	.	.	.	.	.	.	.	.	.	.	.	.	.	.	.	.	.	.	.	.
.	.	16cc\JJ	.	16ee-\JJ	.	.	.	.	.	.	.	.	.	.	.	.	.	.	.	.	.	.	.	.	.	.	.
.	.	4dd\	.	4ff\	.	4BB-/	.	-ri	-ri.	4d\	.	-ri	-ri.	4f\	.	-ri	-ri.	4ff\	.	-ri	-ri.	4dd\	4ff\	4dd\	.	4ff\	.
.	.	4r	.	4r	.	4r	.	.	.	4r	.	.	.	4r	.	.	.	4r	.	.	.	4r	4r	4r	.	4r	.
=58	=58	=58	=58	=58	=58	=58	=58	=58	=58	=58	=58	=58	=58	=58	=58	=58	=58	=58	=58	=58	=58	=58	=58	=58	=58	=58	=58
!	!	!	!LO:DY:a:t=p.	!	!	!	!	!	!	!	!	!	!	!	!	!	!	!	!	!	!	!	!	!	!	!	!
1ryy	.	2f/	p	8r	.	0r	.	.	.	0r	.	.	.	0r	.	.	.	0r	.	.	.	0r	0r	0r	.	0r	.
!	!	!	!	!	!LO:DY:t= :mod=%s	!	!	!	!	!	!	!	!	!	!	!	!	!	!	!	!	!	!	!	!	!	!
!	!	!	!	!	!LO:MO:mod=!LO&colon;DY&colon;ed=brack	!	!	!	!	!	!	!	!	!	!	!	!	!	!	!	!	!	!	!	!	!	!
!	!	!	!	!	!null	!	!	!	!	!	!	!	!	!	!	!	!	!	!	!	!	!	!	!	!	!	!
.	.	.	.	16een\LL	p	.	.	.	.	.	.	.	.	.	.	.	.	.	.	.	.	.	.	.	.	.	.
.	.	.	.	16ff\JJ	.	.	.	.	.	.	.	.	.	.	.	.	.	.	.	.	.	.	.	.	.	.	.
.	.	.	.	(>16gg\LL	.	.	.	.	.	.	.	.	.	.	.	.	.	.	.	.	.	.	.	.	.	.	.
.	.	.	.	16ff\JJ)	.	.	.	.	.	.	.	.	.	.	.	.	.	.	.	.	.	.	.	.	.	.	.
.	.	.	.	16ee-X\LL	.	.	.	.	.	.	.	.	.	.	.	.	.	.	.	.	.	.	.	.	.	.	.
.	.	.	.	16dd\JJ	.	.	.	.	.	.	.	.	.	.	.	.	.	.	.	.	.	.	.	.	.	.	.
.	.	2a/	.	8dd\L	.	.	.	.	.	.	.	.	.	.	.	.	.	.	.	.	.	.	.	.	.	.	.
.	.	.	.	8cc\	.	.	.	.	.	.	.	.	.	.	.	.	.	.	.	.	.	.	.	.	.	.	.
.	.	.	.	8cc\	.	.	.	.	.	.	.	.	.	.	.	.	.	.	.	.	.	.	.	.	.	.	.
.	.	.	.	8cc\J	.	.	.	.	.	.	.	.	.	.	.	.	.	.	.	.	.	.	.	.	.	.	.
!	!	!	!	!LO:PB:g=original	!	!	!	!	!	!	!	!	!	!	!	!	!	!	!	!	!	!	!	!	!	!	!
=59	=59	=59	=59	=59	=59	=59-	=59	=59	=59	=59-	=59	=59	=59	=59-	=59	=59	=59	=59-	=59	=59	=59	=59-	=59-	=59-	=59	=59-	=59
1ryy	.	2a/	.	16a\LL	.	.	.	.	.	.	.	.	.	.	.	.	.	.	.	.	.	.	.	.	.	.	.
.	.	.	.	16cc\	.	.	.	.	.	.	.	.	.	.	.	.	.	.	.	.	.	.	.	.	.	.	.
.	.	.	.	16ff\	.	.	.	.	.	.	.	.	.	.	.	.	.	.	.	.	.	.	.	.	.	.	.
.	.	.	.	16aa\JJ	.	.	.	.	.	.	.	.	.	.	.	.	.	.	.	.	.	.	.	.	.	.	.
.	.	.	.	16ccc\LL	.	.	.	.	.	.	.	.	.	.	.	.	.	.	.	.	.	.	.	.	.	.	.
.	.	.	.	16aa\	.	.	.	.	.	.	.	.	.	.	.	.	.	.	.	.	.	.	.	.	.	.	.
.	.	.	.	16ff\	.	.	.	.	.	.	.	.	.	.	.	.	.	.	.	.	.	.	.	.	.	.	.
.	.	.	.	16ee-\JJ	.	.	.	.	.	.	.	.	.	.	.	.	.	.	.	.	.	.	.	.	.	.	.
.	.	16cc\LL	.	16ee-\LL	.	.	.	.	.	.	.	.	.	.	.	.	.	.	.	.	.	.	.	.	.	.	.
.	.	16b-\	.	16dd\	.	.	.	.	.	.	.	.	.	.	.	.	.	.	.	.	.	.	.	.	.	.	.
.	.	16ee-\	.	16gg\	.	.	.	.	.	.	.	.	.	.	.	.	.	.	.	.	.	.	.	.	.	.	.
.	.	16dd\JJ	.	16ff\JJ	.	.	.	.	.	.	.	.	.	.	.	.	.	.	.	.	.	.	.	.	.	.	.
.	.	4dd\	.	4ff\	.	.	.	.	.	.	.	.	.	.	.	.	.	.	.	.	.	.	.	.	.	.	.
!	!	!LO:PB:g=original	!	!	!	!	!	!	!	!	!	!	!	!	!	!	!	!LO:LB:g=original	!	!	!	!	!	!	!	!	!
=60	=60	=60	=60	=60	=60	=60	=60	=60	=60	=60	=60	=60	=60	=60	=60	=60	=60	=60	=60	=60	=60	=60	=60	=60	=60	=60	=60
*	*	*tremolo	*	*	*	*	*	*	*	*	*	*	*	*	*	*	*	*	*	*	*	*	*	*	*	*	*
!	!	!	!LO:DY:a:t=for.	!	!LO:DY:a:rj:t=for	!	!	!	!	!	!	!	!	!	!	!	!	!	!	!	!	!	!	!	!	!	!
!	!	!	!	!	!	!	!	!	!	!	!	!	!	!	!	!	!	!	!	!	!	!	!	!LO:SIC:o=1ee-:v	!	!	!
1ryy	.	16f\LL	f	16ff\LL	f	2A\	.	Et	Et	2c\	.	Et	Et	2f\	.	Et	Et	2ee-\	.	Et	Et	4f/	4cc\	1ee-T	.	1ffT>	.
.	.	16cc\	.	16ee-\	.	.	.	.	.	.	.	.	.	.	.	.	.	.	.	.	.	.	.	.	.	.	.
.	.	16f\	.	16dd\	.	.	.	.	.	.	.	.	.	.	.	.	.	.	.	.	.	.	.	.	.	.	.
.	.	16cc\	.	16ee-\JJ	.	.	.	.	.	.	.	.	.	.	.	.	.	.	.	.	.	.	.	.	.	.	.
.	.	16f\	.	16ff\LL	.	.	.	.	.	.	.	.	.	.	.	.	.	.	.	.	.	8f/L	8cc\L	.	.	.	.
.	.	16cc\	.	16ee-\	.	.	.	.	.	.	.	.	.	.	.	.	.	.	.	.	.	.	.	.	.	.	.
.	.	16f\	.	16dd\	.	.	.	.	.	.	.	.	.	.	.	.	.	.	.	.	.	8f/J	8cc\J	.	.	.	.
.	.	16cc\JJ	.	16ee-\JJ	.	.	.	.	.	.	.	.	.	.	.	.	.	.	.	.	.	.	.	.	.	.	.
*	*	*rep	*	*	*	*	*	*	*	*	*	*	*	*	*	*	*	*	*	*	*	*	*	*	*	*	*
.	.	16f\LL	.	16f/LL	.	2A\	.	vi-	vi-	2c\	.	vi-	vi-	2f\	.	vi-	vi-	2ee-\	.	vi-	vi-	4f/	4cc\	.	.	.	.
.	.	16cc\	.	16ee-/	.	.	.	.	.	.	.	.	.	.	.	.	.	.	.	.	.	.	.	.	.	.	.
.	.	16f\	.	16f/	.	.	.	.	.	.	.	.	.	.	.	.	.	.	.	.	.	.	.	.	.	.	.
.	.	16cc\	.	16ee-/JJ	.	.	.	.	.	.	.	.	.	.	.	.	.	.	.	.	.	.	.	.	.	.	.
*	*	*	*	*rep	*	*	*	*	*	*	*	*	*	*	*	*	*	*	*	*	*	*	*	*	*	*	*
.	.	16f\	.	16f/LL	.	.	.	.	.	.	.	.	.	.	.	.	.	.	.	.	.	4r	4r	.	.	.	.
.	.	16cc\	.	16ee-/	.	.	.	.	.	.	.	.	.	.	.	.	.	.	.	.	.	.	.	.	.	.	.
.	.	16f\	.	16f/	.	.	.	.	.	.	.	.	.	.	.	.	.	.	.	.	.	.	.	.	.	.	.
.	.	16cc\JJ	.	16ee-/JJ	.	.	.	.	.	.	.	.	.	.	.	.	.	.	.	.	.	.	.	.	.	.	.
*	*	*	*	*Xrep	*	*	*	*	*	*	*	*	*	*	*	*	*	*	*	*	*	*	*	*	*	*	*
*	*	*Xrep	*	*	*	*	*	*	*	*	*	*	*	*	*	*	*	*	*	*	*	*	*	*	*	*	*
!	!	!	!	!	!	!	!	!	!	!	!	!	!	!LO:LB:g=original	!	!	!	!	!	!	!	!LO:LB:g=original	!	!	!	!	!
=61	=61	=61	=61	=61	=61	=61	=61	=61	=61	=61	=61	=61	=61	=61	=61	=61	=61	=61	=61	=61	=61	=61	=61	=61	=61	=61	=61
1ryy	.	16f\LL	.	16ee-\LL	.	4B-\	.	-tam	-tam	4d\	.	-tam	-tam	4f\	.	-tam	-tam	4dd\	.	-ta(m)	-ta(m)	4b-\	4dd\	1dd	.	1ff	.
.	.	16dd\	.	16dd\	.	.	.	.	.	.	.	.	.	.	.	.	.	.	.	.	.	.	.	.	.	.	.
.	.	16f\	.	16cc\	.	.	.	.	.	.	.	.	.	.	.	.	.	.	.	.	.	.	.	.	.	.	.
.	.	16dd\	.	16dd\JJ	.	.	.	.	.	.	.	.	.	.	.	.	.	.	.	.	.	.	.	.	.	.	.
.	.	16f\	.	16ee-\LL	.	4B-\	.	ven-	ven-	4d\	.	ven-	ven-	4f\	.	ven-	ven-	4dd\	.	ven-	ven-	8b-\L	8dd\L	.	.	.	.
.	.	16dd\	.	16dd\	.	.	.	.	.	.	.	.	.	.	.	.	.	.	.	.	.	.	.	.	.	.	.
.	.	16f\	.	16cc\	.	.	.	.	.	.	.	.	.	.	.	.	.	.	.	.	.	8b-\J	8dd\J	.	.	.	.
.	.	16dd\JJ	.	16dd\JJ	.	.	.	.	.	.	.	.	.	.	.	.	.	.	.	.	.	.	.	.	.	.	.
*	*	*rep	*	*	*	*	*	*	*	*	*	*	*	*	*	*	*	*	*	*	*	*	*	*	*	*	*
.	.	16f\LL	.	16f/LL	.	4B-\	.	-tu-	-tu-	4d\	.	-tu-	-tu-	4f\	.	-tu-	-tu-	4dd\	.	-tu-	-tu-	4b-\	4dd\	.	.	.	.
.	.	16dd\	.	16dd/	.	.	.	.	.	.	.	.	.	.	.	.	.	.	.	.	.	.	.	.	.	.	.
.	.	16f\	.	16f/	.	.	.	.	.	.	.	.	.	.	.	.	.	.	.	.	.	.	.	.	.	.	.
.	.	16dd\	.	16dd/JJ	.	.	.	.	.	.	.	.	.	.	.	.	.	.	.	.	.	.	.	.	.	.	.
*	*	*	*	*rep	*	*	*	*	*	*	*	*	*	*	*	*	*	*	*	*	*	*	*	*	*	*	*
.	.	16f\	.	16f/LL	.	4B-\	.	-ri	-ri	4B-\	.	-ri	-ri	4f\	.	-ri	-ri	4dd\	.	-ri	-ri	4r	4r	.	.	.	.
.	.	16dd\	.	16dd/	.	.	.	.	.	.	.	.	.	.	.	.	.	.	.	.	.	.	.	.	.	.	.
.	.	16f\	.	16f/	.	.	.	.	.	.	.	.	.	.	.	.	.	.	.	.	.	.	.	.	.	.	.
.	.	16dd\JJ	.	16dd/JJ	.	.	.	.	.	.	.	.	.	.	.	.	.	.	.	.	.	.	.	.	.	.	.
*	*	*Xrep	*	*Xrep	*	*	*	*	*	*	*	*	*	*	*	*	*	*	*	*	*	*	*	*	*	*	*
=62	=62	=62	=62	=62	=62	=62	=62	=62	=62	=62	=62	=62	=62	=62	=62	=62	=62	=62	=62	=62	=62	=62	=62	=62	=62	=62	=62
1ryy	.	16f\LL	.	16ff\LL	.	2A\	.	Se-	sae-	2c\	.	Se-	sae-	2f\	.	se-	sae-	2ee-\	.	Se-	sae-	4f/	4cc\	1ee-	.	1ffT>	.
.	.	16cc\	.	16ee-\	.	.	.	.	.	.	.	.	.	.	.	.	.	.	.	.	.	.	.	.	.	.	.
.	.	16f\	.	16dd\	.	.	.	.	.	.	.	.	.	.	.	.	.	.	.	.	.	.	.	.	.	.	.
.	.	16cc\	.	16ee-\JJ	.	.	.	.	.	.	.	.	.	.	.	.	.	.	.	.	.	.	.	.	.	.	.
!	!	!	!	!LO:LB:g=original	!	!	!	!	!	!	!	!	!	!	!	!	!	!	!	!	!	!	!	!	!	!	!
.	.	16f\	.	16ff\LL	.	.	.	.	.	.	.	.	.	.	.	.	.	.	.	.	.	8f/L	8cc\L	.	.	.	.
.	.	16cc\	.	16ee-\	.	.	.	.	.	.	.	.	.	.	.	.	.	.	.	.	.	.	.	.	.	.	.
.	.	16f\	.	16dd\	.	.	.	.	.	.	.	.	.	.	.	.	.	.	.	.	.	8f/J	8cc\J	.	.	.	.
.	.	16cc\JJ	.	16ee-\JJ	.	.	.	.	.	.	.	.	.	.	.	.	.	.	.	.	.	.	.	.	.	.	.
*	*	*rep	*	*	*	*	*	*	*	*	*	*	*	*	*	*	*	*	*	*	*	*	*	*	*	*	*
.	.	16f\LL	.	16f/LL	.	4A\	.	-cu-	-cu-	4c\	.	-cu-	-cu-	4f\	.	-cu-	-cu-	4ee-\	.	-cu-	-cu-	4f/	4cc\	.	.	.	.
.	.	16cc\	.	16ee-/	.	.	.	.	.	.	.	.	.	.	.	.	.	.	.	.	.	.	.	.	.	.	.
.	.	16f\	.	16f/	.	.	.	.	.	.	.	.	.	.	.	.	.	.	.	.	.	.	.	.	.	.	.
.	.	16cc\	.	16ee-/JJ	.	.	.	.	.	.	.	.	.	.	.	.	.	.	.	.	.	.	.	.	.	.	.
.	.	16f\	.	16f/LL	.	4A\	.	-li	-li.	4c\	.	-li	-li.	4f\	.	-li	-li.	4ee-\	.	-li	-li.	4r	4r	.	.	.	.
.	.	16cc\	.	16ee-/	.	.	.	.	.	.	.	.	.	.	.	.	.	.	.	.	.	.	.	.	.	.	.
.	.	16f\	.	16f/	.	.	.	.	.	.	.	.	.	.	.	.	.	.	.	.	.	.	.	.	.	.	.
.	.	16cc\JJ	.	16ee-/JJ	.	.	.	.	.	.	.	.	.	.	.	.	.	.	.	.	.	.	.	.	.	.	.
*	*	*Xrep	*	*	*	*	*	*	*	*	*	*	*	*	*	*	*	*	*	*	*	*	*	*	*	*	*
!	!	!	!	!	!	!LO:PB:g=original	!	!	!	!	!	!	!	!	!	!	!	!	!	!	!	!	!LO:LB:g=original	!	!	!	!
=63	=63	=63	=63	=63	=63	=63	=63	=63	=63	=63	=63	=63	=63	=63	=63	=63	=63	=63	=63	=63	=63	=63	=63	=63	=63	=63	=63
1ryy	.	16f\LL	.	16dd\LL	.	2B-\	.	a-	A-	2B-\	.	a-	A-	2f\	.	a-	A-	2dd\	.	a-	A-	4b-\	4dd\	1dd	.	1ff	.
.	.	16dd\	.	16b-\	.	.	.	.	.	.	.	.	.	.	.	.	.	.	.	.	.	.	.	.	.	.	.
.	.	16f\	.	16cc\	.	.	.	.	.	.	.	.	.	.	.	.	.	.	.	.	.	.	.	.	.	.	.
.	.	16dd\	.	16dd\JJ	.	.	.	.	.	.	.	.	.	.	.	.	.	.	.	.	.	.	.	.	.	.	.
.	.	16f\	.	16ee-\LL	.	.	.	.	.	.	.	.	.	.	.	.	.	.	.	.	.	8b-\L	8dd\L	.	.	.	.
.	.	16dd\	.	16ff\	.	.	.	.	.	.	.	.	.	.	.	.	.	.	.	.	.	.	.	.	.	.	.
.	.	16f\	.	16gg\	.	.	.	.	.	.	.	.	.	.	.	.	.	.	.	.	.	8b-\J	8dd\J	.	.	.	.
.	.	16dd\JJ	.	16aa\JJ	.	.	.	.	.	.	.	.	.	.	.	.	.	.	.	.	.	.	.	.	.	.	.
*	*	*rep	*	*	*	*	*	*	*	*	*	*	*	*	*	*	*	*	*	*	*	*	*	*	*	*	*
.	.	16f\LL	.	8bb-\L	.	2e-\	.	-men	-men.	2B-\	.	-men	-men.	2f\	.	-men	-men.	2b-\	.	-men	-men.	4b-\	4dd\	.	.	.	.
.	.	16dd\	.	.	.	.	.	.	.	.	.	.	.	.	.	.	.	.	.	.	.	.	.	.	.	.	.
.	.	16f\	.	8gg\	.	.	.	.	.	.	.	.	.	.	.	.	.	.	.	.	.	.	.	.	.	.	.
.	.	16dd\	.	.	.	.	.	.	.	.	.	.	.	.	.	.	.	.	.	.	.	.	.	.	.	.	.
.	.	16f\	.	8ddd\	.	.	.	.	.	.	.	.	.	.	.	.	.	.	.	.	.	4r	4r	.	.	.	.
.	.	16dd\	.	.	.	.	.	.	.	.	.	.	.	.	.	.	.	.	.	.	.	.	.	.	.	.	.
.	.	16f\	.	8ff\J	.	.	.	.	.	.	.	.	.	.	.	.	.	.	.	.	.	.	.	.	.	.	.
.	.	16dd\JJ	.	.	.	.	.	.	.	.	.	.	.	.	.	.	.	.	.	.	.	.	.	.	.	.	.
*	*	*Xrep	*	*	*	*	*	*	*	*	*	*	*	*	*	*	*	*	*	*	*	*	*	*	*	*	*
=64	=64	=64	=64	=64	=64	=64	=64	=64	=64	=64	=64	=64	=64	=64	=64	=64	=64	=64	=64	=64	=64	=64	=64	=64	=64	=64	=64
1ryy	.	16f\LL	.	8eee-\	.	2F\	.	et	Et	2c\	.	et	Et	2f\	.	Et	Et	2a\	.	et	Et	4f/	4cc\	2ee-\	.	1ff	.
.	.	16cc\	.	.	.	.	.	.	.	.	.	.	.	.	.	.	.	.	.	.	.	.	.	.	.	.	.
.	.	16f\	.	4eee-\	.	.	.	.	.	.	.	.	.	.	.	.	.	.	.	.	.	.	.	.	.	.	.
.	.	16cc\	.	.	.	.	.	.	.	.	.	.	.	.	.	.	.	.	.	.	.	.	.	.	.	.	.
.	.	16f\	.	.	.	.	.	.	.	.	.	.	.	.	.	.	.	.	.	.	.	8f/L	8cc\L	.	.	.	.
.	.	16cc\	.	.	.	.	.	.	.	.	.	.	.	.	.	.	.	.	.	.	.	.	.	.	.	.	.
.	.	16f\	.	8eee-\	.	.	.	.	.	.	.	.	.	.	.	.	.	.	.	.	.	8f/J	8cc\J	.	.	.	.
.	.	16cc\JJ	.	.	.	.	.	.	.	.	.	.	.	.	.	.	.	.	.	.	.	.	.	.	.	.	.
*	*	*rep	*	*	*	*	*	*	*	*	*	*	*	*	*	*	*	*	*	*	*	*	*	*	*	*	*
.	.	16f\LL	.	8aa\	.	2E-\	.	vi-	vi-	2c\	.	vi-	vi-	2f\	.	vi-	vi-	2a\	.	vi-	vi-	4f/	4cc\	2cc\	.	.	.
.	.	16cc\	.	.	.	.	.	.	.	.	.	.	.	.	.	.	.	.	.	.	.	.	.	.	.	.	.
.	.	16f\	.	4aa\	.	.	.	.	.	.	.	.	.	.	.	.	.	.	.	.	.	.	.	.	.	.	.
.	.	16cc\	.	.	.	.	.	.	.	.	.	.	.	.	.	.	.	.	.	.	.	.	.	.	.	.	.
.	.	16f\	.	.	.	.	.	.	.	.	.	.	.	.	.	.	.	.	.	.	.	4f/	4cc\	.	.	.	.
.	.	16cc\	.	.	.	.	.	.	.	.	.	.	.	.	.	.	.	.	.	.	.	.	.	.	.	.	.
.	.	16f\	.	8aa\	.	.	.	.	.	.	.	.	.	.	.	.	.	.	.	.	.	.	.	.	.	.	.
.	.	16cc\JJ	.	.	.	.	.	.	.	.	.	.	.	.	.	.	.	.	.	.	.	.	.	.	.	.	.
*	*	*Xrep	*	*	*	*	*	*	*	*	*	*	*	*	*	*	*	*	*	*	*	*	*	*	*	*	*
!	!	!	!	!	!	!	!	!	!	!LO:LB:g=original	!	!	!	!	!	!	!	!	!	!	!	!	!	!	!	!	!
=65	=65	=65	=65	=65	=65	=65	=65	=65	=65	=65	=65	=65	=65	=65	=65	=65	=65	=65	=65	=65	=65	=65	=65	=65	=65	=65	=65
!	!	!	!	!	!	!	!	!	!	!	!	!	!	!	!	!	!	!	!	!	!	!	!	!LO:SIC:o=1dd:v	!	!	!
1ryy	.	16f\LL	.	16bb-\LL	.	2D\	.	-tam	-tam	2B-\	.	-tam	-tam	2f\	.	-tam	-tam	2b-\	.	-tam	-tam	1b-	1cc	1ddt	.	1ffT>	.
.	.	16dd\	.	16b-\	.	.	.	.	.	.	.	.	.	.	.	.	.	.	.	.	.	.	.	.	.	.	.
.	.	16f\	.	16cc\	.	.	.	.	.	.	.	.	.	.	.	.	.	.	.	.	.	.	.	.	.	.	.
.	.	16dd\	.	16dd\JJ	.	.	.	.	.	.	.	.	.	.	.	.	.	.	.	.	.	.	.	.	.	.	.
.	.	16f\	.	16ee-\LL	.	.	.	.	.	.	.	.	.	.	.	.	.	.	.	.	.	.	.	.	.	.	.
.	.	16dd\	.	16ff\	.	.	.	.	.	.	.	.	.	.	.	.	.	.	.	.	.	.	.	.	.	.	.
.	.	16f\	.	16gg\	.	.	.	.	.	.	.	.	.	.	.	.	.	.	.	.	.	.	.	.	.	.	.
.	.	16dd\JJ	.	16aa\JJ	.	.	.	.	.	.	.	.	.	.	.	.	.	.	.	.	.	.	.	.	.	.	.
*	*	*rep	*	*	*	*	*	*	*	*	*	*	*	*	*	*	*	*	*	*	*	*	*	*	*	*	*
.	.	16f\LL	.	8bb-\L	.	2D\	.	ven-	ven-	2B-\	.	ven-	ven-	2f\	.	ven-	ven-	2b-\	.	ven-	ven-	.	.	.	.	.	.
.	.	16dd\	.	.	.	.	.	.	.	.	.	.	.	.	.	.	.	.	.	.	.	.	.	.	.	.	.
.	.	16f\	.	8ff\	.	.	.	.	.	.	.	.	.	.	.	.	.	.	.	.	.	.	.	.	.	.	.
.	.	16dd\	.	.	.	.	.	.	.	.	.	.	.	.	.	.	.	.	.	.	.	.	.	.	.	.	.
.	.	16f\	.	8ddd\	.	.	.	.	.	.	.	.	.	.	.	.	.	.	.	.	.	.	.	.	.	.	.
.	.	16dd\	.	.	.	.	.	.	.	.	.	.	.	.	.	.	.	.	.	.	.	.	.	.	.	.	.
.	.	16f\	.	8ff\J	.	.	.	.	.	.	.	.	.	.	.	.	.	.	.	.	.	.	.	.	.	.	.
.	.	16dd\JJ	.	.	.	.	.	.	.	.	.	.	.	.	.	.	.	.	.	.	.	.	.	.	.	.	.
*	*	*Xrep	*	*	*	*	*	*	*	*	*	*	*	*	*	*	*	*	*	*	*	*	*	*	*	*	*
!	!	!LO:LB:g=original	!	!LO:LB:g=original	!	!	!	!	!	!	!	!	!	!	!	!	!	!	!	!	!	!	!	!	!	!	!
=66	=66	=66	=66	=66	=66	=66	=66	=66	=66	=66	=66	=66	=66	=66	=66	=66	=66	=66	=66	=66	=66	=66	=66	=66	=66	=66	=66
!	!	!	!	!	!	!	!	!	!	!	!	!	!	!	!	!	!	!	!	!	!	!	!	!LO:SIC:o=2ee-\:v	!	!	!
16F\LL	7 5:	16f\LL	.	8eee-\	.	2F\	.	-tu-	-tu-	2c\	.	-tu-	-tu-	2f\	.	-tu-	-tu-	2a\	.	-tu-	-tu-	4f/	4cc\	2ee-\T	.	1ffT>	.
16E-\	.	16cc\	.	.	.	.	.	.	.	.	.	.	.	.	.	.	.	.	.	.	.	.	.	.	.	.	.
16F\	.	16f\	.	4eee-\	.	.	.	.	.	.	.	.	.	.	.	.	.	.	.	.	.	.	.	.	.	.	.
16G\JJ	.	16cc\	.	.	.	.	.	.	.	.	.	.	.	.	.	.	.	.	.	.	.	.	.	.	.	.	.
16A\LL	.	16f\	.	.	.	.	.	.	.	.	.	.	.	.	.	.	.	.	.	.	.	8f/L	8cc\L	.	.	.	.
16G\	.	16cc\	.	.	.	.	.	.	.	.	.	.	.	.	.	.	.	.	.	.	.	.	.	.	.	.	.
16A\	.	16f\	.	8eee-\	.	.	.	.	.	.	.	.	.	.	.	.	.	.	.	.	.	8f/J	8cc\J	.	.	.	.
16B-\JJ	.	16cc\JJ	.	.	.	.	.	.	.	.	.	.	.	.	.	.	.	.	.	.	.	.	.	.	.	.	.
*	*	*rep	*	*	*	*	*	*	*	*	*	*	*	*	*	*	*	*	*	*	*	*	*	*	*	*	*
8c\L	.	16f\LL	.	8aa\	.	4c\	.	-ri	-ri	2c\	.	-ri	-ri	2f\	.	-ri	-ri	2a\	.	-ri	-ri	4f/	4cc\	2cc\	.	.	.
.	.	16cc\	.	.	.	.	.	.	.	.	.	.	.	.	.	.	.	.	.	.	.	.	.	.	.	.	.
8F\	.	16f\	.	4aa\	.	.	.	.	.	.	.	.	.	.	.	.	.	.	.	.	.	.	.	.	.	.	.
.	.	16cc\	.	.	.	.	.	.	.	.	.	.	.	.	.	.	.	.	.	.	.	.	.	.	.	.	.
8e-\	x 4	16f\	.	.	.	4e-\	.	Se-	sae-	.	.	.	.	.	.	.	.	.	.	.	.	4f/	4cc\	.	.	.	.
.	.	16cc\	.	.	.	.	.	.	.	.	.	.	.	.	.	.	.	.	.	.	.	.	.	.	.	.	.
8F\J	.	16f\	.	8aa\	.	.	.	.	.	.	.	.	.	.	.	.	.	.	.	.	.	.	.	.	.	.	.
.	.	16cc\JJ	.	.	.	.	.	.	.	.	.	.	.	.	.	.	.	.	.	.	.	.	.	.	.	.	.
*	*	*Xrep	*	*	*	*	*	*	*	*	*	*	*	*	*	*	*	*	*	*	*	*	*	*	*	*	*
=67	=67	=67	=67	=67	=67	=67	=67	=67	=67	=67	=67	=67	=67	=67	=67	=67	=67	=67	=67	=67	=67	=67	=67	=67	=67	=67	=67
*	*	*	*	*tremolo	*	*	*	*	*	*	*	*	*	*	*	*	*	*	*	*	*	*	*	*	*	*	*
4d\	.	16b-\LL	.	16bb-\LL	.	4d\	.	-cu-	-cu-	4B-\	.	Se-	sae-	4f\	.	se-	sae-	2b-\	.	se-	sae-	4B-/	4b-\	4dd\	.	4bb-\	.
.	.	16b-\	.	16bb-\	.	.	.	.	.	.	.	.	.	.	.	.	.	.	.	.	.	.	.	.	.	.	.
.	.	16b-\	.	16bb-\	.	.	.	.	.	.	.	.	.	.	.	.	.	.	.	.	.	.	.	.	.	.	.
.	.	16b-\	.	16bb-\JJ	.	.	.	.	.	.	.	.	.	.	.	.	.	.	.	.	.	.	.	.	.	.	.
4F\	x -3	16b-\	.	16aa-X\LL	.	4F\	.	-li	-li.	4d\	.	.	.	4a-X\	.	.	.	.	.	.	.	8B-/L	8b-\L	2.b-\	.	4aa-X\	.
.	.	16b-\	.	16aa-\	.	.	.	.	.	.	.	.	.	.	.	.	.	.	.	.	.	.	.	.	.	.	.
.	.	16b-\	.	16aa-\	.	.	.	.	.	.	.	.	.	.	.	.	.	.	.	.	.	8B-/J	8b-\J	.	.	.	.
.	.	16b-\JJ	.	16aa-\JJ	.	.	.	.	.	.	.	.	.	.	.	.	.	.	.	.	.	.	.	.	.	.	.
4E-\	x 3	16b-\LL	.	16gg\LL	.	4E-\	.	.	.	4e-\	.	.	.	4g\	.	.	.	4b-\	.	-cu-	-cu-	4B-/	4b-\	.	.	4gg\	.
.	.	16b-\	.	16gg\	.	.	.	.	.	.	.	.	.	.	.	.	.	.	.	.	.	.	.	.	.	.	.
.	.	16b-\	.	16gg\	.	.	.	.	.	.	.	.	.	.	.	.	.	.	.	.	.	.	.	.	.	.	.
.	.	16b-\	.	16gg\JJ	.	.	.	.	.	.	.	.	.	.	.	.	.	.	.	.	.	.	.	.	.	.	.
4D\	x 3	16b-\	.	16ff#X\LL	.	4D\	.	.	.	8f\	.	-cu-	-cu-	8f\	.	-cu-	-cu-	4b-\	.	-li	-li.	4B-/	4b-\	.	.	4ff#X\	.
.	.	16b-\	.	16ff#\	.	.	.	.	.	.	.	.	.	.	.	.	.	.	.	.	.	.	.	.	.	.	.
.	.	16b-\	.	16ff#\	.	.	.	.	.	8f\	.	-li	-li.	8f\	.	-li	-li.	.	.	.	.	.	.	.	.	.	.
.	.	16b-\JJ	.	16ff#\JJ	.	.	.	.	.	.	.	.	.	.	.	.	.	.	.	.	.	.	.	.	.	.	.
!	!	!	!	!	!	!	!	!	!	!	!	!	!	!LO:LB:g=original	!	!	!	!	!	!	!	!	!	!	!	!	!
=68	=68	=68	=68	=68	=68	=68	=68	=68	=68	=68	=68	=68	=68	=68	=68	=68	=68	=68	=68	=68	=68	=68	=68	=68	=68	=68	=68
4E-\	.	16b-\LL	.	16gg\LL	.	4E-\	.	a-	A-	2e-\	.	a-	A-	2g\	.	a-	A-	4b-\	.	a-	A-	4B-/	4b-\	4b-\	.	4gg\	.
.	.	16b-\	.	16gg\	.	.	.	.	.	.	.	.	.	.	.	.	.	.	.	.	.	.	.	.	.	.	.
.	.	16b-\	.	16gg\	.	.	.	.	.	.	.	.	.	.	.	.	.	.	.	.	.	.	.	.	.	.	.
.	.	16b-\	.	16gg\JJ	.	.	.	.	.	.	.	.	.	.	.	.	.	.	.	.	.	.	.	.	.	.	.
4G\	6 x	16b-\	.	16ee-\LL	.	4G\	.	.	.	.	.	.	.	.	.	.	.	4ee-\	.	.	.	4r	4r	4ee-\	.	4bb-\	.
.	.	16b-\	.	16ee-\	.	.	.	.	.	.	.	.	.	.	.	.	.	.	.	.	.	.	.	.	.	.	.
.	.	16b-\	.	16ee-\	.	.	.	.	.	.	.	.	.	.	.	.	.	.	.	.	.	.	.	.	.	.	.
.	.	16b-\JJ	.	16ee-\JJ	.	.	.	.	.	.	.	.	.	.	.	.	.	.	.	.	.	.	.	.	.	.	.
4F\	6 4	16b-\LL	.	16dd\LL	.	4F\	.	.	.	4f\	.	.	.	2b-\	.	-men	-men,	4dd\	.	.	.	2r	2r	4dd\	.	2bb-\	.
.	.	16b-\	.	16dd\	.	.	.	.	.	.	.	.	.	.	.	.	.	.	.	.	.	.	.	.	.	.	.
.	.	16b-\	.	16dd\	.	.	.	.	.	.	.	.	.	.	.	.	.	.	.	.	.	.	.	.	.	.	.
.	.	16b-\	.	16dd\JJ	.	.	.	.	.	.	.	.	.	.	.	.	.	.	.	.	.	.	.	.	.	.	.
4E-\	6 5	16b-\	.	16cc\LL	.	4E-\	.	.	.	4g\	.	.	.	.	.	.	.	4cc\	.	.	.	.	.	4cc\	.	.	.
.	.	16b-\	.	16cc\	.	.	.	.	.	.	.	.	.	.	.	.	.	.	.	.	.	.	.	.	.	.	.
.	.	16b-\	.	16cc\	.	.	.	.	.	.	.	.	.	.	.	.	.	.	.	.	.	.	.	.	.	.	.
.	.	16b-\JJ	.	16cc\JJ	.	.	.	.	.	.	.	.	.	.	.	.	.	.	.	.	.	.	.	.	.	.	.
*	*	*	*	*Xtremolo	*	*	*	*	*	*	*	*	*	*	*	*	*	*	*	*	*	*	*	*	*	*	*
!	!	!	!	!	!	!	!	!	!	!	!	!	!	!	!	!	!	!	!	!	!	!	!	!LO:LB:g=original	!	!	!
=69	=69	=69	=69	=69	=69	=69	=69	=69	=69	=69	=69	=69	=69	=69	=69	=69	=69	=69	=69	=69	=69	=69	=69	=69	=69	=69	=69
*2\right	*	*	*	*	*	*	*	*	*	*	*	*	*	*	*	*	*	*	*	*	*	*	*	*	*	*	*
*tremolo	*	*	*	*	*	*	*	*	*	*	*	*	*	*	*	*ij	*ij	*	*	*	*	*	*	*	*	*	*
8F\L	6 4	16f\LL	.	16dd\LL	.	1F	.	.	.	1f	.	.	.	2.b-\	.	a-	a-	2dd\	.	.	.	4b-\	2dd\	2dd\	.	2.bb-\	.
.	.	16cc\	.	16bb-\	.	.	.	.	.	.	.	.	.	.	.	.	.	.	.	.	.	.	.	.	.	.	.
8F\	.	16f\	.	16dd\	.	.	.	.	.	.	.	.	.	.	.	.	.	.	.	.	.	.	.	.	.	.	.
.	.	16cc\	.	16bb-\JJ	.	.	.	.	.	.	.	.	.	.	.	.	.	.	.	.	.	.	.	.	.	.	.
*	*	*	*	*rep	*	*	*	*	*	*	*	*	*	*	*	*	*	*	*	*	*	*	*	*	*	*	*
8F\	.	16f\	.	16dd\LL	.	.	.	.	.	.	.	.	.	.	.	.	.	.	.	.	.	8b-\L	.	.	.	.	.
.	.	16cc\	.	16bb-\	.	.	.	.	.	.	.	.	.	.	.	.	.	.	.	.	.	.	.	.	.	.	.
8F\J	.	16f\	.	16dd\	.	.	.	.	.	.	.	.	.	.	.	.	.	.	.	.	.	8b-\J	.	.	.	.	.
.	.	16cc\JJ	.	16bb-\JJ	.	.	.	.	.	.	.	.	.	.	.	.	.	.	.	.	.	.	.	.	.	.	.
*	*	*rep	*	*Xrep	*	*	*	*	*	*	*	*	*	*	*	*	*	*	*	*	*	*	*	*	*	*	*
8F\L	5 4	16f\LL	.	16cc\LL	.	.	.	.	.	.	.	.	.	.	.	.	.	2cc\	.	.	.	4f/	2cc\	2cc\	.	.	.
.	x 3	16cc\	.	16bb-\	.	.	.	.	.	.	.	.	.	.	.	.	.	.	.	.	.	.	.	.	.	.	.
8F\	.	16f\	.	16cc\	.	.	.	.	.	.	.	.	.	.	.	.	.	.	.	.	.	.	.	.	.	.	.
.	.	16cc\	.	16bb-\JJ	.	.	.	.	.	.	.	.	.	.	.	.	.	.	.	.	.	.	.	.	.	.	.
8F\	.	16f\	.	16cc\LL	.	.	.	.	.	.	.	.	.	4a\	.	-men	-men,	.	.	.	.	4f/	.	.	.	4aa\	.
.	.	16cc\	.	16aa\	.	.	.	.	.	.	.	.	.	.	.	.	.	.	.	.	.	.	.	.	.	.	.
8F\J	.	16f\	.	16cc\	.	.	.	.	.	.	.	.	.	.	.	.	.	.	.	.	.	.	.	.	.	.	.
.	.	16cc\JJ	.	16aa\JJ	.	.	.	.	.	.	.	.	.	.	.	.	.	.	.	.	.	.	.	.	.	.	.
*	*	*Xrep	*	*	*	*	*	*	*	*	*	*	*	*	*	*	*	*	*	*	*	*	*	*	*	*	*
!	!	!	!	!	!	!	!	!	!	!	!	!	!	!	!	!	!	!	!	!	!	!	!	!	!	!LO:LB:g=original	!
=70	=70	=70	=70	=70	=70	=70	=70	=70	=70	=70	=70	=70	=70	=70	=70	=70	=70	=70	=70	=70	=70	=70	=70	=70	=70	=70	=70
8B-\L	.	16f\LL	.	16dd\LL	.	2B-\	.	-men	-men,	2f\	.	-men	-men,	2f\	.	a-	a-	2dd\	.	-men	-men,	1b-	1dd	1dd	.	1bb-	.
.	.	16dd\	.	16bb-\	.	.	.	.	.	.	.	.	.	.	.	.	.	.	.	.	.	.	.	.	.	.	.
8B-\	.	16f\	.	16dd\	.	.	.	.	.	.	.	.	.	.	.	.	.	.	.	.	.	.	.	.	.	.	.
.	.	16dd\	.	16bb-\JJ	.	.	.	.	.	.	.	.	.	.	.	.	.	.	.	.	.	.	.	.	.	.	.
*	*	*	*	*rep	*	*	*	*	*	*	*	*	*	*	*	*	*	*	*	*	*	*	*	*	*	*	*
8B-\	.	16f\	.	16dd\LL	.	.	.	.	.	.	.	.	.	.	.	.	.	.	.	.	.	.	.	.	.	.	.
.	.	16dd\	.	16bb-\	.	.	.	.	.	.	.	.	.	.	.	.	.	.	.	.	.	.	.	.	.	.	.
8B-\J	.	16f\	.	16dd\	.	.	.	.	.	.	.	.	.	.	.	.	.	.	.	.	.	.	.	.	.	.	.
.	.	16dd\JJ	.	16bb-\JJ	.	.	.	.	.	.	.	.	.	.	.	.	.	.	.	.	.	.	.	.	.	.	.
*	*	*	*	*Xrep	*	*	*	*	*	*	*	*	*	*	*	*	*	*	*	*	*	*	*	*	*	*	*
*	*	*	*	*rep	*	*	*	*	*	*	*	*	*	*	*	*	*	*	*	*	*	*	*	*	*	*	*
!	!	!	!	!	!	!	!	!	!	!LO:SIC:v:s:t=1B-	!	!	!	!	!	!	!	!	!	!	!	!	!	!	!	!	!
8G\L	.	16g\LL	.	16dd\LL	.	2G\	.	a-	a-	2B-\	.	a-	a-	2g\	.	-men	-men,	2dd\	.	a-	a-	.	.	.	.	.	.
.	.	16dd\	.	16bb-\	.	.	.	.	.	.	.	.	.	.	.	.	.	.	.	.	.	.	.	.	.	.	.
8G\	.	16g\	.	16dd\	.	.	.	.	.	.	.	.	.	.	.	.	.	.	.	.	.	.	.	.	.	.	.
.	.	16dd\	.	16bb-\JJ	.	.	.	.	.	.	.	.	.	.	.	.	.	.	.	.	.	.	.	.	.	.	.
*	*	*	*	*Xrep	*	*	*	*	*	*	*	*	*	*	*	*	*	*	*	*	*	*	*	*	*	*	*
*	*	*	*	*rep	*	*	*	*	*	*	*	*	*	*	*	*	*	*	*	*	*	*	*	*	*	*	*
8G\	.	16g\	.	16dd\LL	.	.	.	.	.	.	.	.	.	.	.	.	.	.	.	.	.	.	.	.	.	.	.
.	.	16dd\	.	16bb-\	.	.	.	.	.	.	.	.	.	.	.	.	.	.	.	.	.	.	.	.	.	.	.
8G\J	.	16g\	.	16dd\	.	.	.	.	.	.	.	.	.	.	.	.	.	.	.	.	.	.	.	.	.	.	.
.	.	16dd\JJ	.	16bb-\JJ	.	.	.	.	.	.	.	.	.	.	.	.	.	.	.	.	.	.	.	.	.	.	.
*	*	*	*	*Xrep	*	*	*	*	*	*	*	*	*	*	*	*	*	*	*	*	*	*	*	*	*	*	*
!	!	!	!	!LO:LB:g=original	!	!LO:LB:g=original	!	!	!	!	!	!	!	!	!	!	!	!	!	!	!	!	!	!	!	!	!
=71	=71	=71	=71	=71	=71	=71	=71	=71	=71	=71	=71	=71	=71	=71	=71	=71	=71	=71	=71	=71	=71	=71	=71	=71	=71	=71	=71
8E-\L	6 5	16g\LL	.	16cc\LL	.	2E-\	.	.	.	2B-\	.	.	.	2g\	.	a-	a-	1cc	.	.	.	2b-\	2cc\	1cc	.	2bb-\	.
.	.	16dd\	.	16bb-\	.	.	.	.	.	.	.	.	.	.	.	.	.	.	.	.	.	.	.	.	.	.	.
8E-\	.	16g\	.	16cc\	.	.	.	.	.	.	.	.	.	.	.	.	.	.	.	.	.	.	.	.	.	.	.
.	.	16dd\	.	16bb-\JJ	.	.	.	.	.	.	.	.	.	.	.	.	.	.	.	.	.	.	.	.	.	.	.
8E-\	.	16g\	.	16cc\LL	.	.	.	.	.	.	.	.	.	.	.	.	.	.	.	.	.	.	.	.	.	.	.
.	.	16dd\	.	16bb-\	.	.	.	.	.	.	.	.	.	.	.	.	.	.	.	.	.	.	.	.	.	.	.
8E-\J	.	16g\	.	16cc\	.	.	.	.	.	.	.	.	.	.	.	.	.	.	.	.	.	.	.	.	.	.	.
.	.	16dd\JJ	.	16bb-\JJ	.	.	.	.	.	.	.	.	.	.	.	.	.	.	.	.	.	.	.	.	.	.	.
8F\L	.	16f\LL	.	16cc\LL	.	2F\	.	.	.	2A\	.	-men	-men,	2f\	.	-men	-men,	.	.	.	.	2f/	2cc\	.	.	2aa\	.
*	*	*	*	*	*	*	*	*	*	*	*	*	*	*	*	*Xij	*Xij	*	*	*	*	*	*	*	*	*	*
.	.	16cc\	.	16aa\	.	.	.	.	.	.	.	.	.	.	.	.	.	.	.	.	.	.	.	.	.	.	.
8F\	.	16f\	.	16cc\	.	.	.	.	.	.	.	.	.	.	.	.	.	.	.	.	.	.	.	.	.	.	.
.	.	16cc\	.	16aa\JJ	.	.	.	.	.	.	.	.	.	.	.	.	.	.	.	.	.	.	.	.	.	.	.
8F\	.	16f\	.	16cc\LL	.	.	.	.	.	.	.	.	.	.	.	.	.	.	.	.	.	.	.	.	.	.	.
.	.	16cc\	.	16aa\	.	.	.	.	.	.	.	.	.	.	.	.	.	.	.	.	.	.	.	.	.	.	.
8F\J	.	16f\	.	16cc\	.	.	.	.	.	.	.	.	.	.	.	.	.	.	.	.	.	.	.	.	.	.	.
.	.	16cc\JJ	.	16aa\JJ	.	.	.	.	.	.	.	.	.	.	.	.	.	.	.	.	.	.	.	.	.	.	.
*Xtremolo	*	*	*	*	*	*	*	*	*	*	*	*	*	*	*	*	*	*	*	*	*	*	*	*	*	*	*
=72	=72	=72	=72	=72	=72	=72	=72	=72	=72	=72	=72	=72	=72	=72	=72	=72	=72	=72	=72	=72	=72	=72	=72	=72	=72	=72	=72
!	!	!	!	!	!	!	!	!	!	!	!	!	!	!LO:SIC:v:s:t=2f	!	!	!	!	!	!	!	!	!	!	!	!	!
4B-\	.	4dd\ 4f\	.	4bb-\ 4dd\	.	4B-\	.	-men	-men,	4B-\	.	a-	a-	4f\	.	a-	a-	4dd\	.	.	.	4b-\	4dd\	4dd\	.	4bb-\	.
4F\	.	4cc\ 4e-\	.	4aa\ 4cc\	.	4F\	.	a-	a-	4A\	.	.	.	4f\	.	.	.	4cc\	.	.	.	4f/	4cc\	4cc\	.	4aa\	.
4BB-/	.	4dd\ 4f\	.	4bb-\ 4dd\	.	4BB-/	.	-men	-men.	4B-\	.	-men	-men.	4f\	.	-men	-men.	4dd\	.	-men	-men.	4b-\	4dd\	4dd\	.	4bb-\	.
4r	.	4r	.	4r	.	4r	.	.	.	4r	.	.	.	4r	.	.	.	4r	.	.	.	4r	4r	4r	.	4r	.
==	==	==	==	==	==	==	==	==	==	==	==	==	==	==	==	==	==	==	==	==	==	==	==	==	==	==	==
*-	*-	*-	*-	*-	*-	*-	*-	*-	*-	*-	*-	*-	*-	*-	*-	*-	*-	*-	*-	*-	*-	*-	*-	*-	*-	*-	*-
!!!system-decoration: [(g1)][(g2)][(g3)][(g4)]g5
!!!RDF**kern: > = above
!!!RDF**kern: < = below
!!!RDF**kern: | = vertical stroke
!!!filter-modern: tie -s | sic -sq | shed -e "s/LO:DY:(a|b|rj)/LO:dy:$1/L" | shed -e "s/TX(.*):t=P:/tx$1:t=P:/LG" | modori -m | autostem -r | shed -e "s/yy//" | shed -k -e "s/\(y([^y])/($1/" | shed -e "s/-//B" | shed -e "s/^(\d+[\/\\]right)/$1yy/I; s/^(\d+[\/\\]left)/$1yy/I" | shed -e "s/^(X?)rep$/$1REP/I" | shed -k -e "s/[<>]//g" | shed -k -e "s/r[a-gA-G]+/r/D"
!!!ENC: Mateusz Solarz
!!!END: 2021-11-23
!!!EED: Jędrzej Mróz
!!!EEV: 2021-12-02
!!!EED-modern: Antoni Szymański
!!!END-modern: 2022-08-28
